AdityaSuresh27/puma560-inverse-kinematics-ai/data/puma560_dataset.csv
nx,ny,nz,ox,oy,oz,ax,ay,az,Px,Py,Pz,theta1,theta2,theta3,theta4,theta5,theta6,config
-0.278082345432408,-0.840048535030158,0.465820424576355,0.954740856725621,-0.188435911865355,0.230134316472574,-0.105546698942401,0.508734081729499,0.854429358361009,-254.347416334201,332.976674010978,1502.34008025642,108.392933828305,-64.7497029145498,92.4705505594279,-45.4775656908612,4.85699849701127,-166.624522810455,1
0.925115643728195,0.10797796975552,-0.364007972133638,-0.113643258539092,0.993504170651159,0.00588835183808675,0.362279250741723,0.035919645686284,0.931377218712047,341.265464171942,-107.205660859538,1341.56915745453,-43.1496129238805,-26.3923570719109,18.6853966831812,37.0827766300401,27.0244186683031,13.760014277368,1
-0.98825727146232,0.0324069364578385,0.149322991770417,-0.146724108199883,0.0715533042343018,-0.986586114196882,-0.042656786972289,-0.996910184080076,-0.0659581943554377,-388.476728045167,-820.42182993893,847.706262163486,-126.197338945998,-9.90773124610297,88.5024059244575,67.5778586554692,36.8451643623617,-163.853674828055,1
-0.125314800255497,-0.630670320964262,-0.765866272329419,0.889824856724002,0.269943592611327,-0.36788881630759,0.438757250872319,-0.727588759577087,0.527358200603765,182.698177209022,209.190405792986,1190.75655213865,29.5860104568014,-11.7955266057393,-7.48846374434089,-77.0551954203733,60.6331696285692,-47.9179208960408,1
0.720930956103547,-0.692949368757842,-0.00892910240365452,0.264037418965704,0.262741010839437,0.928036315350321,-0.640736137514933,-0.671407725276661,0.372382690952822,-558.232709927441,265.517852908784,1183.83394188671,136.45376531894,-12.2487624218417,37.4491228827192,99.5940684761986,70.2612398124298,62.5532880820815,1
0.227548034269688,0.107407218864845,-0.967825181236632,-0.289698737748751,-0.941428415912988,-0.172589626160852,-0.929675499003164,0.31965016353395,-0.183104449716377,-510.220078777124,134.90796779045,1353.3533862148,148.47652170389,-39.808365055705,58.5560125573241,12.4492693072523,82.2397015703951,-14.1525276526697,1
-0.842556479572826,-0.469867684261098,-0.263292495177816,0.482658139373237,-0.875622235815709,0.0180781813760091,-0.239039116519893,-0.111848376976212,0.964546650681643,-45.1850713588156,-410.046889084534,1277.70677510051,-114.666314383031,-16.2021892078224,14.3134491236794,-36.193465796837,16.7870738427872,-0.301322604759243,1
0.386816762486092,0.233481277537718,-0.89210945813792,-0.487987873017289,0.872688562915125,0.0168079726676757,0.78245806791664,0.428836991404065,0.451506596580459,826.779989968947,18.9616590899041,1041.64024820471,-10.6686511622763,-11.5508895081091,67.628256706373,88.9722798073493,34.4975484671614,-67.3291512969938,1
-0.0050207445323802,0.788403888117985,-0.61513746538866,-0.379582832043246,0.567602593781705,0.730577969247848,0.925144132415252,0.23716366655271,0.296414793026437,544.139397439025,128.856597842303,1345.70114651917,-2.8416881387848,-34.5374821496241,54.7114632730624,20.5537860183329,53.6412888453974,42.6196347960449,1
-0.732381673568076,-0.535598847421885,0.420417600561598,0.083513910762609,-0.683447584178149,-0.725206747341878,0.675753291468683,-0.496017413324775,0.545274439844599,-149.618516371656,-825.361602437602,929.923440277728,-113.072770389997,-1.75530850755896,64.7674278490064,116.054099804465,65.285076662142,167.149211836509,1
-0.379692914637445,0.0073890296391371,0.92508307346698,0.181820018904763,-0.979868844158063,0.0824531926235254,0.907069331032415,0.199505514934632,0.370705783892124,683.701336815547,410.729421261356,1070.25504524291,21.5130784223127,-10.1410780789578,58.6200112714952,-23.9923467481312,21.1978962343616,-165.958512682544,1
0.204744253031257,-0.743450721952623,0.63667952289892,0.47759329419555,-0.491895857164452,-0.727971916384068,0.854391266452388,0.453121936935935,0.254354229525107,266.46474464412,635.385241092432,742.217019095698,57.8550072958324,37.6819391318284,7.26515038092433,-49.387250860179,39.4475219696365,-97.4947094017194,1
-0.379958255327079,-0.0596821925716599,0.923076248258312,0.837143304917404,-0.446677437134507,0.315706119970638,0.39347529940362,0.892702247697847,0.219681327641755,59.6224318446379,408.714293833055,1343.0034587616,61.2233022636025,-31.8534679176528,29.9380952802578,4.95581166719614,79.2178472377748,161.288107635174,1
0.65734308841381,0.719149815461177,-0.225219020148719,-0.201763162160859,0.455900777713527,0.866859912139818,0.726079672287721,-0.524383470184136,0.444781166067313,332.221751048561,-802.056590633273,951.612052713177,-79.0871919283025,-7.98920530860394,73.9231071583835,102.859439634935,39.0105516492648,-8.23163760292248,1
0.1721663098626,0.252952335213192,0.952036699848534,0.260050832792473,-0.943853433967564,0.20375048356158,0.950122269032905,0.212498967757091,-0.22828022820633,321.851795944001,570.210878474478,1171.39506689025,51.3024166063168,-16.6942701115188,45.4208188306749,-38.1072214391454,80.5008566114447,-174.342363146536,1
0.0269339737731972,0.909616337606492,0.414575300055535,-0.776714903996553,-0.242028750007698,0.581494662124543,0.629276186555959,-0.337668776360894,0.699993770332656,201.138273149099,272.142090940824,1512.2419137727,35.7320093090959,-61.7332357533956,77.802336065732,-80.4785951212053,40.5839398370332,147.9599929496,1
0.390366887767438,0.890244493685456,-0.234687951112729,0.69286397267403,-0.116212310891232,0.711641914285324,0.606261666531149,-0.440408265431117,-0.662183774668958,-268.573460746425,-703.806593379404,214.819941397333,-124.870261156205,42.8326173522096,66.8128573719092,50.4499744832852,76.3205785217844,-32.532502959505,1
-0.827482358400157,0.139508638215116,0.543884442138105,-0.13768424085327,-0.989483666768624,0.0443297080835947,0.544349149312436,-0.038202265135486,0.837988419121258,889.581175802381,-161.045356051237,753.467018585132,-19.6854707178495,0.796251246266929,86.5499062963399,169.720883999037,55.6920474846219,14.4062912560257,1
0.989543904072102,-0.144038869649694,-0.00746096131752267,0.101956900023814,0.661978596232951,0.742555808452796,-0.102017902601833,-0.735552270174928,0.669742641160941,134.556625852062,2.36629042036651,1563.16382494165,-54.4442188420653,-78.4816725190093,75.8184438629255,-41.8790013399532,49.9114731084132,87.0303663139401,1
0.391747438111265,0.647392055940838,0.653771726704326,-0.00925687153070898,0.713302533818401,-0.700795123825582,-0.920026225203785,0.268482813515026,0.285427265313478,-175.786237576633,729.809830007967,1174.07492909178,88.7230397065242,-30.2428113892776,84.5156036969378,95.3654336654382,68.412234007199,169.494574723977,1
-0.02646466127577,0.627068097910843,0.778514754058031,-0.97205177514087,-0.197874189003854,0.126337451975061,0.233270161291672,-0.753413170782503,0.614779331095648,155.039380068409,-115.25276768619,1243.0751907639,-88.3440945690824,-30.6648752353976,-9.61413585773965,12.2075514347088,91.2735404838107,-179.235994319024,1
0.493150553662554,-0.796673728433518,-0.349447423579219,0.1776601366787,-0.300994965631822,0.936930577203884,-0.851609891474742,-0.524130709926575,-0.00689867046914666,-555.549378283776,-506.403986743362,652.986183276827,-148.357374370465,39.4149003578272,17.0130629312361,-0.0573529892975679,33.9673179114979,69.5937578247917,1
-0.0096966433609129,0.439645429107892,-0.898119074383831,-0.254177236199126,0.86757707631253,0.427438825161188,0.967109046439803,0.232426145950795,0.103335274581117,444.308708449291,113.783418469141,1187.66817032139,-5.82817432395177,-10.7130216094357,7.18649128305972,19.2548454263367,87.3972291264454,26.6195707471558,1
0.938147117092766,-0.311727527030066,-0.15068488836725,0.345744362606006,0.866645936946376,0.359702176391115,0.0184613763489608,-0.38955201047621,0.920819422426159,-14.4120222280571,-286.233660687344,1524.82203590083,-125.205558970189,-58.6317609058592,61.3309378187947,42.2392710195489,20.886908257052,62.6144256162619,1
-0.823761370974474,-0.224363874733335,0.520651568138328,0.480955912483179,-0.762785536371009,0.432249506362546,0.30016431156573,0.606480896004018,0.736262391301114,139.827124937836,-35.3229495974042,1348.83951987368,-111.150413654577,-45.4872425912207,7.43517820390383,141.514399413865,5.63586003753819,174.83083679387,1
0.96773513557546,-0.0827278160351101,0.238001713915693,-0.247339888522986,-0.492131809081656,0.834643194446257,0.0480800053887581,-0.866580862322771,-0.496715131778507,-230.256919484162,-711.757416932049,1147.53470694619,-120.836203690516,-27.0591453091838,74.4390894399098,29.6558003912472,78.8686288867944,81.1122940585947,1
-0.188013791047429,-0.242275908469996,0.951815737709254,-0.711653771272823,0.701502609337181,0.0379868256938608,-0.676904516316107,-0.670221212189054,-0.304308728962369,-662.030482663304,-422.342522129231,805.609005319864,-159.342816372435,19.8889050141412,29.2488406568925,25.9148404066573,62.6940550741825,157.411917979576,1
-0.5188449704482,0.633526389589179,-0.573972307985939,-0.787530164229443,-0.615411884339985,0.0326259565661246,-0.332559975146367,0.468948319441714,0.818224502580703,-117.831002934858,612.387387856478,1326.22578893192,85.9970090894335,-32.552477526419,64.8566142035028,99.5763567953755,21.6931844717352,-63.1841258610529,1
0.964212522287765,-0.218136220319068,-0.150701032671904,0.26342337097997,0.723798553183842,0.637748996103112,-0.0300389661109776,-0.654623742155667,0.755357807082905,-241.071839466452,45.9848348130796,1237.91436204751,127.418459526496,-18.7624606868133,-5.73015614745165,108.779629043062,26.44481712467,113.50019694642,1
0.227518827989354,-0.761458622612075,0.606972774480101,0.631702374505222,0.589780242971901,0.503101754165565,-0.741071719170833,0.268961021431966,0.615201329643767,-741.348517402498,379.072895328707,877.406414771681,142.310482095053,10.7378465400686,46.4167673954277,114.522781962525,15.3110352030963,36.1670414636279,1
0.068051354059388,-0.339565967221875,-0.938117245932168,0.996743734035357,-0.0176266354752471,0.0786843719113055,-0.0432543855803973,-0.940417064725271,0.337260733708457,501.434149761327,-46.7211864302009,1149.94787281678,-15.3656746147884,-3.99695625945936,13.7895685679708,-80.8990854225335,68.4301125517164,15.0706276977802,1
-0.92586736560625,0.36455578717366,-0.0993413274701651,-0.375995133116146,-0.862903117630226,0.337677167509159,0.0373802244283428,0.349996125153165,0.936005038020339,-236.591634526253,439.232077632173,1328.97037784007,102.817556183649,-24.2583998612586,36.0419042356972,-40.2404679715019,10.1728074474301,95.6180914878285,1
-0.284411268868733,0.361535899521686,-0.887920054676953,-0.672789670644202,-0.735072717496507,-0.0837983237706306,-0.682981909873859,0.573550253551811,0.45230058305922,13.3660292378916,231.595323368359,1479.23440960061,32.6440874430999,-56.2030096094833,47.0165620014809,102.586757120625,60.7303918249634,4.66995388392222,1
-0.29277918207269,-0.953506141170143,0.0714590043008558,-0.734652533193587,0.176484557750941,-0.655086907476939,0.61201797850806,-0.244293347486741,-0.752166706493069,600.36437301645,-526.078873930623,482.338683881054,-52.7050585677241,38.8629025114764,37.1696643140582,21.3620710241289,68.4746068183416,-128.666078300213,1
0.772706925445866,-0.626474108565408,-0.102245775781567,0.4582736472531,0.439124234953247,0.772758157841162,-0.439214380002907,-0.643972124842297,0.626410912121396,243.696199498852,-144.322445016083,1494.93177529917,-50.7634250626458,-55.4192607183828,59.22262257926,-76.5385526758079,50.2313882733145,87.2099888716625,1
-0.0609283623146473,0.547336547652254,-0.834691822333109,0.728330475503661,0.596188885514622,0.337777339739427,0.682511870313086,-0.587351271721569,-0.434966700436699,31.1640794455878,-680.976262907145,1195.10529034685,-103.107486803491,-26.4632625236084,63.8491994397204,53.2588009822402,95.2930994315694,-10.6760259891781,1
0.849729612065109,0.0519120182918955,-0.524656772315522,-0.515490377362665,-0.126927771239837,-0.847442630350035,-0.110585972103959,0.990552615081576,-0.0810941399169689,-15.7901704284148,586.043037983101,1122.58464349354,75.7532059203153,-4.07187473290345,17.527707457467,20.7542017436677,82.0558686476165,-62.9836331664685,1
0.899471878249736,-0.339532151834923,-0.275078639861837,0.143791599974869,0.824419578621257,-0.547408745054933,0.412643085504361,0.452824774340247,0.790364098203572,140.073317142671,-59.3192078210286,1579.68890499375,-111.417997285045,-86.6819117125787,90.8888859089233,160.811349825787,41.7329601884783,-65.5755857213499,1
-0.256288424186886,-0.727107589913846,0.636891510633861,0.789620282082765,0.222545058459488,0.571815973088193,-0.557508792532761,0.649452268950491,0.51710317790913,-93.1384104916224,165.747560002947,1468.05059267532,37.8964356254408,-60.3652315975492,38.0310108804875,79.4933848010302,60.4026477697189,163.964556691702,1
-0.45015428164297,0.829453310745958,0.330708826630121,-0.288561888999732,0.215358496343963,-0.932926982281772,-0.84504032976859,-0.515391039255667,0.142404064968509,94.8846449462858,-92.9268577835442,1505.8239928987,-87.4914535726552,-68.7439075627533,59.8878149750849,-60.3134836262988,86.1508174828495,-117.284436185935,1
0.66739354442946,0.479063590943704,0.570161321632752,-0.498627336398801,-0.281204809186301,0.819935750340436,0.553133470556356,-0.831517847747491,0.051199928004449,617.698772939136,243.41068351839,1244.67929998858,14.0171421375156,-34.1159952151789,77.5005031553683,-77.5041370546746,74.484643633869,166.996689465636,1
0.0770241694715288,-0.989016465869212,-0.126149544417706,0.996764586333441,0.0792998666514986,-0.013110704808598,0.0229703449853254,-0.124731557308598,0.991924594847122,-231.785043916231,-528.91282856368,1284.85102945845,-128.214863231937,-20.5412388374588,43.5209781465703,162.932817358037,18.9290450692394,-121.320672039145,1
-0.471156938693674,0.437679905493847,0.765798563231678,-0.172286473850573,0.805815404413299,-0.566550002151944,-0.865059830329059,-0.398870698769825,-0.304259191502788,-778.168951758534,235.998518374373,767.060927140086,150.078977442419,18.6998106161545,38.5211888545591,54.5175985087125,72.6404112183575,170.547034145543,1
0.888919216818428,0.4547371888324,-0.0551063976659529,-0.239156011347256,0.563339847950865,0.79085562395874,0.390675092893549,-0.689827735600347,0.609516748735516,-114.697458396357,-828.394559543928,957.870835331755,-109.871063340156,-1.07729903356985,59.4900479692093,112.470933421717,40.6430217169925,2.83262231130467,1
0.295072882949255,0.362416389293607,-0.884073726857325,-0.912061960607636,0.382573331050308,-0.147582608669266,0.28473667442142,0.849877642452404,0.443433218307982,489.524472772526,745.653702212394,926.827001196431,46.3003367865853,-12.1834106860348,86.1467275829093,117.923732054865,25.5659747202977,-118.138153254383,1
-0.839157971882731,-0.128417383953338,-0.528510050731529,-0.412155563877726,-0.483899308450952,0.77199044712051,-0.354882641714548,0.865650295892788,0.353140022980166,-53.7035931576968,747.964539031546,1165.73039226526,81.241955750148,-19.3819587823588,62.1782030016211,54.1852575390112,36.5176549228634,19.5273566089439,1
0.544982493342744,-0.483880983005984,-0.684728615025755,-0.772318044682831,0.0281810068323807,-0.634610643395776,0.326372363730776,0.874679955834748,-0.358351859285968,-573.241255095753,690.878244585833,639.57680347789,123.47670716893,5.22687465752466,83.8424976691541,-64.052920984894,57.0668376125991,31.5490722134051,1
0.65874190094024,-0.362895518815124,0.659064450846456,0.712021770190584,0.583706285897975,-0.390271662535033,-0.243072225316482,0.726356533822814,0.642901298064175,100.440164751062,188.917312857199,1537.96593768148,3.93241819383741,-67.6615158168446,65.0369881106626,102.404176670056,49.3791727324986,-146.020424108449,1
0.563072983950159,-0.685412042960571,0.461691613644952,0.821449222295827,0.525308814191922,-0.221972576959086,-0.0903879966314351,0.50424297823261,0.858818391144521,-57.5740488689468,215.917335099524,1467.07280499896,59.7686555176535,-51.1339156603805,35.5696636635423,28.7033336639001,43.7271682843629,-139.753078949223,1
-0.520742313206839,0.80677376278218,0.279183701032624,-0.805875605779504,-0.572467283632327,0.151147997605467,0.28176577372972,-0.146278176283777,0.948267232323033,-215.36335732829,-612.025792202069,1314.8679993077,-123.438787013461,-41.3296178484701,89.2786507789843,156.5068515939,52.3751786860917,82.7584508590768,1
-0.0665251765928515,0.964144815305421,0.256903047858459,-0.365064640742042,-0.263140523508012,0.89302008542239,0.928602287827881,-0.0343778999882962,0.369480650417882,563.565681065083,199.92241392758,1311.65170207198,6.82463770005569,-30.0967835261665,54.2128992142273,-11.8790813480908,44.578486893974,111.242423675655,1
-0.101774525372298,-0.488044129296163,-0.866864968633981,-0.442886959256534,-0.758041396359311,0.478773832541135,-0.890782289510599,0.432650169611865,-0.138999077079958,-59.7006400004657,174.165771089174,1294.83302896279,24.9517146932768,-42.1422551114453,6.9422546672388,127.574886979281,75.7141549679307,56.3853015172288,1
0.73184779815158,-0.552961385794519,-0.39828696458821,0.643749340344118,0.752718608363679,0.137845868380444,0.223574567308532,-0.357279165979842,0.906843983499671,44.900931125092,-340.846735987139,1536.54723102308,-109.941738893737,-68.8225996931727,89.6362137767184,103.476194048804,19.9637008546252,-35.9807365243281,1
-0.740453308324369,-0.669824294746416,0.0553562314375147,-0.133150566285081,0.226921751777996,0.964768078487243,-0.658786630776202,0.706995001918311,-0.257212445991769,-235.677039328823,631.33894320784,852.738313447959,95.6092859899777,24.5568042424157,7.99635930050759,36.7398887404568,78.6708130395154,73.8281971247412,1
0.754878477655088,-0.629838665337481,-0.182925502921373,-0.0174845702271111,0.259482664079729,-0.965589476354242,0.655631583877035,0.732101087752222,0.184865420062549,185.827002624645,529.229374723746,1389.22742491287,57.1437248197802,-50.0060535721764,82.2246282659519,-11.9967012904667,47.6292798852921,-72.7982159072397,1
0.939708417216907,-0.262510766977885,0.219171594492485,0.34197271325035,0.724447669708033,-0.598523380701869,-0.00165951917403053,0.637388163582666,0.77054109229867,130.908043782228,287.897343260348,1399.07049649581,33.0463180853122,-37.3893650111322,27.2646645358121,48.3346220089594,45.7584230745322,-98.2221461427661,1
0.438457830359287,0.429615133252071,0.789421033591981,0.294383844336155,0.761247924871415,-0.577788671637677,-0.8491718808289,0.485728766041059,0.207303358992896,-675.861702621112,264.867816201059,1234.77055280213,147.274956603076,-32.8240583342181,78.3201464195955,5.36608821245417,32.6382561855358,-147.708471156079,1
0.880458859537509,0.474056673552626,-0.00790360184523948,-0.473982932730592,0.880481799447781,0.00959063716884195,0.0115054831283266,-0.00469798908217509,0.99992277339631,356.020680630401,98.5247568112132,1307.74979417016,-6.72066441959132,-20.5745448527153,14.90337826362,-1.71699508270935,6.36020609956597,36.7249764447168,1
0.117396625883004,-0.955696455638495,0.269930207482053,0.67140929828233,-0.123894185575151,-0.730657091227273,0.731729175591157,0.267010328378301,0.627118727298107,316.842735101511,-397.202553641058,1427.50037077561,-72.6117862723337,-53.9630879304242,87.5197331208929,115.836920827063,59.8259257333005,-149.971658482851,1
-0.154940900574738,-0.186270381274976,-0.970204443603906,-0.964709621551115,0.240169727442229,0.107952990264424,0.212905292127261,0.952691895147639,-0.216908942886652,475.869394243096,794.380593561834,625.338775261086,48.7398567167409,4.7625035139029,87.7177722051887,69.0107655313774,30.1000014129526,-66.4982426835307,1
0.849486529489095,-0.266222655983451,-0.455519630375783,0.51596425091525,0.599572241101719,0.611795733458258,0.110243040569634,-0.754744079235723,0.646689915542668,-155.512398278956,-8.45998617443942,1269.05588678209,110.388198375684,-32.0688584081226,-5.17809507857466,141.73276443282,14.9335229944277,82.765599150093,1
0.550976912867968,0.334664053570161,-0.764476561272137,-0.804077140806024,-0.0322775777652135,-0.593648136194177,-0.223348143309259,0.941784545011012,0.251311515173316,354.149958912872,-83.0307484846624,1133.36172910684,-41.2976753422819,-2.6683404420255,-3.40164744590753,143.548789597883,70.5264936830036,-34.1091969481729,1
0.843336203845349,0.52175520899259,-0.128668368967726,0.165628029837625,-0.0245868479948697,0.985881758953772,0.51122539355535,-0.852740868490995,-0.107152266375477,794.815013205279,183.555893855077,994.632247991558,6.7793757190656,-13.8050400256506,75.006139092079,-72.2736841079662,72.2399876229887,139.65625006782,1
0.0466965846722194,0.658511479148129,-0.751120536804908,-0.39775110699979,0.702016681180683,0.590733980929235,0.916304253979207,0.271173765645209,0.294705451197302,328.697722043555,-800.044632762075,715.25184945541,-80.5772361927475,8.51209487271629,72.0724589117633,108.099614711373,93.8821847707755,-40.7162822688977,1
-0.878222978431147,0.461257677233098,0.126355670031278,0.459259113152193,0.739664855966978,0.491911544725279,0.133437128049831,0.490038014893617,-0.861427464628878,577.572341766921,561.490900509157,714.655306986061,32.8153596804702,19.6520522760829,39.8400167080027,19.9786414537359,96.4242524300555,68.9833662870415,1
-0.634433009760367,-0.772520528576893,-0.026585504578237,0.465904130189944,-0.354727489408132,-0.810618128177599,0.616788535560085,-0.526669195212213,0.584971333670434,229.250672528714,-343.980442214586,1331.55627226495,-80.4708267643,-27.0673777992728,24.128116882469,38.6885962243664,56.4728286804487,-85.8566537052833,1
-0.756861366959735,-0.527149972668048,-0.38635964789289,0.629514923387293,-0.746904514971478,-0.214113537049648,-0.175703820210409,-0.405273428479215,0.89715194684745,184.879367528186,60.6010320810919,1383.60926341275,-18.0320528729871,-38.3261449950047,16.5072915763704,-56.1626130570302,31.9670253004962,-73.3332885590766,1
-0.45622209656608,0.563558355557667,0.68866782884493,0.883219407065081,0.192359487424697,0.427693005064748,0.108558176055316,0.803367790914502,-0.585504325289486,-162.676663932477,673.286149788673,686.672502331074,92.6408938686242,38.2379196745153,7.64479084367496,-8.48087495753385,80.5050609991468,155.662477060163,1
-0.137892447104492,0.836938286126631,-0.529641367575222,-0.405802570358302,-0.535545994500116,-0.740617824296361,-0.903498725467906,0.112804224168681,0.413479455460089,-818.885855022209,224.473050398814,1054.36118537454,154.06354110234,-24.4977450388629,92.5670190032977,101.858544391736,17.465399607623,-148.823171883659,1
0.157425502529238,0.971299797413734,-0.178308481843845,-0.98727480064343,0.158909480525526,-0.00602038317572001,0.0224873112641707,0.176987232712271,0.983956218685039,13.9426810002929,153.759795074694,1517.56264792558,9.49513820542262,-63.6231394320831,45.2167335753702,25.4233825199331,23.4517461047906,47.5122205875225,1
-0.377502036885266,-0.00231564497321912,0.926005858478138,0.427800886884387,-0.887321794570043,0.172181398710578,0.821266469136788,0.461144956244083,0.335956419796133,631.721411027275,-371.942330899598,1030.62406064004,-45.5974303202711,0.522266095122703,39.4976296843826,91.7810045980828,65.4842456438108,126.434774703362,1
0.424424454880733,-0.84613528975551,0.322364628223308,0.817581837352626,0.511124897710722,0.26516273903267,-0.389132138649966,0.151017914071686,0.90871875093405,-200.596020571192,225.291573056758,1550.72957192756,99.6611967395397,-70.3350669006333,86.1802880905982,96.6978870516151,21.1451038108095,100.044444438727,1
0.622490478197753,0.710236283491833,-0.328740058655529,-0.690227891828585,0.300219953220312,-0.658371807590711,-0.368905220747822,0.636735738984472,0.677108954899357,-333.668454602597,730.001639034262,1028.66769425589,103.688768826223,-3.31516242589786,53.2268972916697,106.975270562939,12.5451092971083,-159.562755368844,1
0.66379833941354,0.726780850110189,0.176525806909179,0.17595410400518,-0.381153715709849,0.907613352856991,0.726919471382876,-0.571411796267531,-0.38088927683876,302.365000138775,685.607989469824,301.112589052382,59.4633508459478,41.4916215553946,59.5995364542742,-66.556383494376,92.7084366516007,-155.827667351028,1
0.738365873411657,-0.336713803909673,-0.584328376204441,0.604919556273484,0.713709173293682,0.353116901881431,0.298141187055616,-0.614201131725697,0.730663261953097,334.961371706451,-743.268639817686,723.640011696903,-76.1837285928727,27.0614435702048,37.0260135450478,158.651749978781,23.1022752606563,-120.196090375899,1
0.829631129971748,-0.119584355005889,-0.545354719627168,-0.0810688929830261,0.940637575537231,-0.329588813642009,0.552394806974421,0.317648443291111,0.770687643408421,696.329875442143,-65.0585622563963,1155.83366382121,-19.143444479031,-9.94973342628772,44.8288262035809,101.518207373996,29.4143823671546,-92.7104306978354,1
-0.716393434834474,-0.356692813791182,-0.599625452358214,0.0404550540207827,-0.879226565197056,0.474683089709295,-0.696522673809144,0.315801969027295,0.644302166089983,-485.591953069562,566.122750198302,1223.69294811606,117.744079014456,-34.8771782764053,89.1647076834556,109.985916163205,29.9680463912474,-47.7978418174734,1
-0.918443907001722,-0.328192183062652,0.220795563062267,-0.374055638065017,0.539121369303769,-0.754606207761241,0.128620252383464,-0.775653298927169,-0.617914873214923,639.308103650493,-645.439230466358,698.187649978778,-52.7997454876199,-1.99528642584186,88.5495617100047,-29.095858851856,48.9135451770424,-68.1860037452019,1
-0.233113702030777,-0.907442719392494,-0.3495793371283,0.557765256052387,0.169705426422863,-0.812464145291009,0.796590183887751,-0.384379733160048,0.466579360526683,51.8866207237465,-452.268256771654,1121.85032817201,-108.015459396644,1.05221155509749,-1.5953814685074,81.9733148349547,62.262032100574,-66.1111189237107,1
-0.651680584170335,-0.0804448432769886,-0.754215515224628,0.114522376507111,-0.993395986960758,0.00700274013687645,-0.749798000460507,-0.0818110034188669,0.656589611724876,-168.893369689743,570.236028748882,1246.29376934824,88.6838898349855,-18.4526082386592,43.1850703825083,115.996662822632,56.2936211265157,-29.3738459610435,1
0.930895839758878,0.348514691414766,0.109409530607182,-0.279130396044784,0.485479047396093,0.828490384098249,0.235625035858874,-0.801777777446751,0.549211469353155,300.671610899172,-301.323260892163,1368.66056399397,-62.9829619563686,-32.7426911771969,34.830878314776,-10.9068094721414,54.6356726500538,97.9955871555386,1
-0.375819801268606,-0.502196455600975,0.778818462131095,0.528325092647701,-0.806577352046325,-0.265151978391142,0.761335716654107,0.311819972336214,0.56845072908654,226.768745726604,649.571398622666,831.84000836237,61.5317761902748,29.415511775908,11.4234217162303,-78.0479899981272,32.1526953228172,-110.155797015974,1
-0.811724420793799,0.578871190274586,-0.0775345713669388,-0.423209277582751,-0.491500162208066,0.761131721791524,0.402488971345622,0.650642555954903,0.643946342737976,277.781244124655,729.962491795363,1141.96323658012,58.8983119445342,-18.8439957339067,68.6343808866779,-76.0907979582034,0.503913523295482,159.862056314383,1
-0.712369418820352,-0.663536186071676,-0.228581584785406,0.694082318481229,-0.61792898051441,-0.369341996274649,0.103824593913366,-0.421762379562089,0.900742443146124,172.481166561018,-650.032787019706,1158.92970726971,-87.5505315000779,-7.36742254201237,38.2983347085974,138.749995979258,7.46866093811418,173.036809181103,1
0.414984833671748,0.708456285944549,0.570856618362341,0.0508678033947288,-0.644518239811686,0.762894950257138,0.908405225876771,-0.28755161181204,-0.303502909613848,517.299038680754,24.1972389615624,1331.22176423552,-12.4177701272535,-36.2947107688566,52.1401980347403,-4.90643626627003,91.882771598287,128.211074275866,1
-0.390768740679811,-0.206416756266459,-0.89704621622297,-0.552048210250721,-0.727266597048288,0.407830933570247,-0.736574887480214,0.654580338499589,0.170241051404393,187.785400158425,702.75807144348,1032.73421539266,59.5453824948123,-0.630781182802281,40.0379133862879,87.6631636643145,75.359946132134,-15.619582183896,1
-0.41493213655121,-0.902911047232976,0.112173806397478,0.753109078785803,-0.41001093222734,-0.514507289457075,0.510546802465206,-0.129006496885694,0.850117219125595,-166.388432855659,-286.838934165088,1377.76000824803,-149.11635242192,-32.0482313801502,27.439462946172,129.051868098417,28.6871012007787,-95.4939760697228,1
0.200842349967208,-0.920285733675284,0.335762592993015,0.915808476136708,0.298068968835958,0.269164865562408,-0.347788995650825,0.253434524504481,0.902670347520831,-153.992546252842,374.172857327573,1178.75708083344,89.1445601155571,-3.96394465499665,-3.05855158431214,44.58115445668,30.0541665139717,152.785416216726,1
-0.731231591890084,-0.503425942653258,-0.460285432406429,0.663567440504085,-0.681322182970695,-0.308995687502115,-0.158046230340215,-0.531377834742593,0.832261368693466,111.731290077068,118.663412271514,1233.76418743956,4.09072279525557,-23.6327773256944,-11.4193045358814,-58.4990599743854,37.4746330846291,-95.9163966106969,1
0.159866894233927,0.335873110566023,0.928241256208052,-0.667297000796555,0.729712454017953,-0.149112196613887,-0.727431982288324,-0.595574502518199,0.340783983036585,-733.770719213663,-516.185088410718,916.596196911538,-154.663297888382,-11.7336818528924,85.853031587507,108.994193653397,13.8901604804157,84.4487720069374,1
0.473829654631111,0.880574192385494,0.00863423979262665,-0.589910723096746,0.310115836326088,0.745542424571027,0.653827803911425,-0.35835354018679,0.666402238192488,33.7813842373318,-259.700184664526,1307.67039985797,-126.443383718682,-28.673824964355,6.12596833010291,77.5536284624621,49.1673091693334,120.80976279162,1
0.211717845511765,0.742267558840681,0.635778597457128,-0.230437018894292,-0.594271636926368,0.770545262699062,0.949775938953482,-0.309645107562757,0.0452280128623889,67.5387222904947,232.224900305898,1160.59755039319,52.8628411133862,-14.5703381572124,-11.87008636642,-71.6831906046399,96.0218617178954,104.493138154854,1
0.543707150308621,0.837938322113556,0.0473487384921383,-0.679010282994075,0.406023794124234,0.611628738854926,0.493282444742953,-0.364697198972627,0.789726777290688,182.71709123861,-554.246996705022,1391.908672943,-88.3801713665248,-49.2217250384851,88.1943453742396,112.749295674712,31.567429746543,23.4313544588704,1
0.982704945256287,-0.00830524332196922,-0.184991928208235,-0.18122542850435,-0.248442121281531,-0.951542882079703,-0.0380569918970548,0.968611137302528,-0.245650422473179,-243.207922549915,500.094941760587,888.709794630341,102.411540659811,26.1083952342205,-10.1706450545704,-9.85032423889194,88.5218397039724,-76.2205261704027,1
0.84038909535851,0.372388595316629,0.393792969059395,-0.18371324481453,0.879287760165168,-0.439434270970572,-0.509897648633746,0.296950785319436,0.807356562502558,-28.1309465812747,-354.772570355493,1251.24833066412,-111.98101541085,-14.4671850951532,7.32884281696612,-88.3844016635771,35.7474014678689,-144.0170861061,1
0.437659952245006,0.470196569826197,0.766399994731587,-0.677685374920634,-0.387689665535736,0.62485138701572,0.590928336450012,-0.792850495970374,0.14896909820481,73.9946558290556,-824.242656298206,613.159314890645,-97.328490795377,31.8735081715533,38.9652887392665,82.321752096706,43.904061692708,69.6016325495994,1
0.910556790980141,0.25919753135458,0.322029455391334,-0.0920179085908269,-0.632375674610518,0.769177294685343,0.403012450053987,-0.730012086133226,-0.551963150220102,820.629587313206,-106.407619593719,931.08900548227,-14.7193261723191,-6.67381613459452,65.6018743129024,-38.1071429425448,78.0033109705158,152.055768069888,1
-0.888270955124078,-0.438633248299202,-0.136292273329958,0.166610910745086,-0.0311776449935661,-0.985529684420185,0.428036814659266,-0.898125173870071,0.10077528147916,170.775626115394,-786.487196724965,581.192463536978,-89.4638149175791,38.1164157324643,31.3908849730889,62.1811471845509,28.3233066612946,-138.503118122594,1
0.432090068272921,0.441838966618099,0.786178415169071,-0.751360801696459,0.65849742869474,0.0428728594389246,-0.498753564973682,-0.609228581059905,0.616510679101164,-30.0566651707225,-298.436100205,1224.46115128855,-122.353630684981,-17.3299521886022,-5.77927725225486,-5.66463031490341,74.9126674075526,174.058258180758,1
-0.0610256609854143,0.903267990464944,-0.424714970424537,-0.448851832005132,0.355222938347165,0.819968717072574,0.891519995068495,0.240673225501775,0.383755777701968,-53.0404986560003,114.170868385343,1472.90342016389,60.2301491232896,-61.8923911349993,41.7917471021541,-41.3413478616009,82.1570887353482,48.38646080402,1
0.63022054289685,-0.490218657494857,-0.602086152601718,-0.539869611958929,0.280635010286737,-0.793589814126087,0.557998986911369,0.825184621066888,-0.0877922078580049,248.275069515936,397.815820933056,1424.9314874127,38.5320998075039,-53.1753492930892,73.3049258243749,17.8930669584553,75.8360550761966,-58.9060429847513,1
-0.103220710299494,0.481186581292887,0.870519935985921,-0.423887946777719,-0.813021865780816,0.399142148036073,0.899813588218047,-0.327803172263394,0.287889886436148,628.787665499885,26.5911740073467,1211.95969411068,-9.48143078604525,-15.7733680522849,38.3595868206809,-12.9951566533661,51.1398233115831,160.54226779887,1
-0.475624211402418,-0.847933422872084,-0.23407374885762,0.513519762566708,-0.0515988902347992,-0.856524960511933,0.714198195868108,-0.52758550482644,0.459972251462815,117.608546799792,257.954781378903,1306.45408667921,47.0114140306833,-26.7112754756917,12.9369791026987,-76.7534008259198,64.9959002598533,-89.8454610647571,1
0.886095987117194,-0.269509243504256,0.377092388255942,0.0277489752680907,-0.781267395101595,-0.623579386864847,0.462670396704152,0.563015119705441,-0.684799298332505,-251.380739792837,789.951686930123,900.157241808133,100.140941052817,-4.66042776939226,64.9062651523715,-33.776791601196,85.9528055453134,-79.6842669111518,1
0.705369684358593,0.623888113506696,0.336477681597033,0.131466972260541,0.351307582955401,-0.926984043747615,-0.696541487344799,0.698102144376516,0.165781037589965,-169.48232700322,658.307089591356,1260.29301165523,89.1122976410114,-31.4571259359184,69.2308754646858,58.0170727879349,56.4958949776295,-141.743118432138,1
-0.932610856317982,-0.357649477993993,0.0482062399328514,0.0921333374219907,-0.106809312345028,0.990001625721831,-0.34892468931465,0.92772766569021,0.132562964283651,94.5097611196439,836.923224221132,986.171886054483,71.5665464929461,-7.49130990596377,64.7619513798812,63.9878589379444,44.0072605736768,43.0805251031748,1
0.481797591117736,-0.82379408658554,0.29872124815594,0.847482613204445,0.351373389791661,-0.397881843343576,0.222810012138843,0.444859577679309,0.867442018026378,451.628148555216,-249.39447182031,1177.65322893538,-47.669465292908,-3.96946701291172,15.6927966462749,127.116763739163,35.6087912297374,-145.903243089532,1
-0.746378136053397,0.354982336802625,0.562945129279581,-0.24604909985671,0.638753577079048,-0.729008716153945,-0.618368432636369,-0.682628309057622,-0.389408619822382,-486.475497236824,-420.368735016708,712.738190164549,-153.44903627948,41.8018513058943,-3.33566705103863,20.0813358551296,76.7617673245596,-141.083808892613,1
-0.157547969102227,0.444922237164349,0.881602427576305,-0.90103741536136,0.300571090927835,-0.312711680973658,-0.404116584107462,-0.843623862971598,0.353537217664837,-8.96369300061644,-584.438125809155,1200.06332056923,-103.600215458662,-11.576103603932,27.0260576184112,-13.8631486631724,54.2313947702927,-156.55729270783,1
0.827152008916175,-0.0968318397798592,0.55357307462591,0.514890774168618,-0.264121811120386,-0.815553284320852,0.225182248016971,0.959616206457214,-0.168611065718383,-132.50884134785,454.974005835815,1005.87278014353,90.7889114124703,11.7926363475753,-11.7460543529916,-13.9930047705685,99.661873803275,-124.15605540304,1
-0.435037428723947,-0.8493114456382,0.299019236700933,-0.892597175380377,0.363126827186549,-0.267224979895974,0.118375327295135,-0.383156594208402,-0.916066758594802,173.967697083248,-872.167895195432,521.7473858033,-88.1476563169786,11.305956112609,83.2006748244528,6.84195302303611,62.7698205736202,-155.440090515325,1
0.420971131387576,0.713243104188377,-0.560417327414127,-0.885593409710689,0.189516403736847,-0.424037551864983,-0.19623358330128,0.674809459805048,0.711424327488426,-272.445524868606,369.793185886626,1463.56680234272,108.919375249256,-51.9471066526719,72.4676491656432,-4.64675282657083,24.166981393853,-34.7969019820159,1
-0.523958272844107,-0.385790580778769,-0.759363783769413,0.719414733113688,0.276824447139828,-0.637032705003982,0.455971676858532,-0.880076049695768,0.132498968504324,-16.9045842212444,-775.484539414471,993.35854317778,-104.443144577783,1.81647212005553,41.5768138702059,56.015747378165,52.8678476371307,-75.0736722382457,1
0.198144606129086,-0.39710661028809,0.896127811825664,0.712461744888004,0.686234639947642,0.146561526353511,-0.673154497224144,0.609416408542987,0.418896960916974,-420.497336097536,784.093117578831,901.950550316054,107.474806373811,-5.74749753179517,76.2592132089562,106.218102865335,28.5623406059409,76.1798221849962,1
0.481752331814777,0.875698057397204,-0.032674195656326,-0.348586968705596,0.225712576722938,0.909692782184038,0.803991179080759,-0.4268568202335,0.413994491485667,-49.6545027478689,-638.946033805754,1285.63811602645,-111.767190247385,-32.5749588279009,69.3732461095459,100.595877078767,67.0224233467118,47.6407596305441,1
0.680214363622016,-0.730054364207852,-0.0657954772257565,-0.6777002700865,-0.592140777102469,-0.435995004578228,0.27933987085087,0.341159677267923,-0.897540701672891,278.767904270159,721.197262016359,669.517098908188,58.7195856796064,27.5966994996718,30.0194043357434,-3.55374226804517,96.4310260174372,-74.6004241947542,1
-0.655444460588762,0.678453605752186,0.331803049903651,-0.754461331325398,-0.608180069366444,-0.246789592082273,0.0343607132960711,-0.412089441829422,0.910495268145036,146.515632653299,-10.4193515180513,1511.60387591902,-69.1712955168989,-63.1160029788588,44.6746093304305,-9.76232490877607,42.4356657763917,-150.811652307356,1
0.175335910346893,-0.745712180335784,-0.642783527045986,-0.197001556082741,0.613118089022266,-0.76503372201143,0.964597172628971,0.260767239147358,-0.0394048416271364,453.523608101842,481.226161040777,1226.92083469647,36.3031019574665,-24.0374328675225,54.8016660045999,-23.7375660162266,63.721251825191,-38.0710170701708,1
-0.244357200623852,-0.0439310436205623,0.968689641685965,0.535779224508017,-0.838754629974417,0.0971148458376314,0.808226565443665,0.542734496879355,0.228493073873697,98.538124189222,-241.232107882142,1192.44034792832,-109.283796732456,-15.2414963165244,-6.29778710580827,137.676840645319,60.0918645318659,-171.015621492133,1
-0.155840257527118,0.965474837888032,-0.208739434556481,0.581629585811647,-0.0811127455911054,-0.809399621578393,-0.798386397080044,-0.247546076332772,-0.548908098910733,-548.307965105354,-715.550689243841,670.767386529463,-134.961976478768,7.37546797454151,73.9271458639998,-30.7933160683493,49.6224037722858,-38.2801646782046,1
0.725833857852371,-0.650128656681286,0.224717468295037,-0.0269228408761814,0.299585590129847,0.953689485537985,-0.687342979475531,-0.698270151122284,0.19994605426805,-722.843761119302,440.125132783807,504.378061887447,135.337906109049,24.9961273153448,67.206251010563,101.52133145064,90.5518022636799,11.1235270822389,1
0.0954781943549121,0.977359082606737,-0.188820385681319,-0.266604145507677,0.207864540916199,0.941124095020322,0.959065244913425,-0.039516531677443,0.280414514109627,716.133136008419,-110.815015759661,1240.26677804354,-21.3360233840615,-33.1866166475754,78.8630270933592,35.7478968252427,32.2948863798896,52.8429620883768,1
0.193462696747735,0.138552011645876,0.971275205611661,-0.228650949144249,0.969085240752791,-0.0926959525035474,-0.95409167715819,-0.204149788694446,0.219161893023137,-624.039065737602,164.620579251225,1212.48013698437,149.291111034049,-17.5425129109939,43.167723114597,50.2690021813224,59.5169252470531,165.520546696904,1
0.892901170549834,-0.398298560900004,0.20996608301276,-0.146352690764669,-0.697750874359185,-0.701230780297709,0.425803228659291,0.595400683335163,-0.681314638582898,467.419077074543,652.597595355868,389.469523607773,43.8129723500484,42.4190046310497,43.9795990046576,10.5348295250605,47.526942363893,-121.104050906446,1
-0.0338769901714603,0.13732257499923,-0.989946897531632,-0.940379137406273,0.331039604472064,0.0781015889851996,0.338436740718197,0.93357125634124,0.11792065919712,137.727464282989,129.796988958076,1509.38816845749,-48.0053578799175,-72.6092557113497,60.9766176717763,116.352911253777,77.8926674945197,14.9943959462694,1
0.939397944269806,0.0020788830123965,-0.342822374630191,-0.312900448705127,0.413817257775474,-0.854896827908092,0.140088584480652,0.910357597547583,0.389389564685033,-89.6096041740162,790.963002656161,1132.28564513198,86.7182272440753,-22.0864871174187,75.0858226786256,-20.0190697731204,14.8513594846609,-50.8817527584134,1
-0.522573309300055,0.0690879272182345,0.849790559326165,-0.844117403012094,-0.182125386052718,-0.50427785365537,0.119928922030123,-0.980845146834013,0.153492187400064,509.327233598127,-440.603111087331,718.843885889384,-50.2147544123915,40.7443138293105,4.16233056349849,-48.1380671846259,45.9737877172383,-117.169233879801,1
0.288071085782824,-0.57311459955546,0.767173191210622,0.954887997066918,0.232267262404806,-0.185042783897419,-0.0721384959188529,0.785869947632152,0.614169734532079,111.056167561041,277.791877540279,1370.44789799048,31.2762747987194,-35.702951951723,20.745991413939,55.1851139991011,59.7367850938617,-150.864075559349,1
-0.511912145366848,0.315043188711795,-0.799183173416592,-0.829728998301634,-0.422271389137949,0.365015976763858,-0.222476391563863,0.849961565696832,0.477566322132238,609.74030707911,-2.61163329037523,1159.29059442999,-17.5808317511379,-9.12443545619221,36.7474852322757,130.596581728745,78.1257777695183,0.925759478725753,1
0.784480604940228,-0.257930824332701,-0.563969742390199,0.575967915622871,0.640150167022203,0.508398194169188,0.229893759475239,-0.723656999911214,0.65074526954396,-287.485231028105,-310.329367319251,1394.1425025295,-158.368281691925,-36.0788169775208,42.7068707764814,91.6939752969635,49.2680603527526,33.2937104074862,1
0.810696095489837,0.466811971623416,-0.353353115037341,-0.0606310023245443,-0.533354688187968,-0.8437159819187,-0.582319261500643,0.705421405783078,-0.404085285488561,-374.508485797066,519.442453160253,756.052350239844,111.737384028954,37.0987308203008,-2.63488439981619,16.4567420715947,80.8115739168861,-77.3693552908098,1
-0.67518704041584,-0.381501157854743,-0.631331392384372,0.726289809994228,-0.493427686164931,-0.478573119203817,-0.128940189053093,-0.781655924996039,0.610236382531834,14.094703841547,-751.656241337102,1197.04364464629,-99.652173002041,-24.8646718976269,71.8977644429673,2.41685147612745,5.3647117687525,-39.3957766648877,1
0.783320799776771,-0.535832116043693,0.315107073949823,0.618010767484963,0.616773101076979,-0.487497315952133,0.0668671512009267,0.576606352032325,0.814281216095672,270.924353236496,628.555219295092,1236.87325181779,53.5047815549638,-21.2642881478889,56.9837392410916,102.999949479536,17.2650048565278,158.604300592056,1
0.213954668649908,-0.438116152605449,0.87308512562585,0.970400195490587,-0.00716214122278405,-0.241396280677511,0.112012768712941,0.898889837832926,0.423615626583767,-42.2346679234589,856.965208897345,807.271536666912,83.4865418294097,13.6610799236952,49.4379538485854,-16.2186643325083,1.91280437314286,-148.58430148222,1
-0.934009026021943,0.133999657312033,0.331166470449228,-0.173328680481375,0.640601342357619,-0.748055538507805,-0.312384871324025,-0.756091272274634,-0.575101452056938,-634.112293989457,-529.979568751844,270.828836104487,-151.917462884853,33.0379531445668,77.5883010772318,58.7332676503838,37.4728681676182,168.200246146165,1
-0.138997050757267,0.511751208855246,0.847815145014511,-0.731514998535682,-0.630130864085448,0.260424463221618,0.667507023781864,-0.58399126223097,0.461940016495385,525.108542041279,-470.260827886281,1044.88599534252,-54.2155609943962,4.17089333328054,27.4458887720302,22.0567075904974,32.1833109336735,150.100088596449,1
-0.915725911989884,0.373763188211439,-0.147469092518791,-0.382744386847806,-0.699720492950982,0.603239559446271,0.122281594881619,0.60884506311742,0.783807948843817,-13.5023858988028,590.717752310556,1260.18797448727,77.5677091899185,-17.6614268353041,37.5006559152039,2.09994624948742,18.5569005657924,75.1153345894203,1
-0.273808229392082,0.731764439850975,-0.624139293817304,-0.463066769832056,0.46847082174465,0.752399000432083,0.842969880953334,0.49503120481792,0.210584629215998,-354.507800854848,375.146658324883,1184.51991351552,123.949300533579,-10.342477896625,24.7538720678512,-96.4692264493364,79.1058310731536,64.9765540821389,1
-0.361661967123199,0.718483474462893,0.594122982605712,-0.922130832677251,-0.181763405642726,-0.341521290398005,-0.137387586639181,-0.671374382362693,0.728272675407072,199.836077330882,-159.674624000342,1394.73676147594,-65.8730882891514,-39.1211857541274,23.0542290410167,-28.4995595281728,56.9213331819529,-161.218864907713,1
-0.938792781369855,-0.066693251454509,0.33796467841814,0.270827334387462,-0.749189728216145,0.604456206919906,0.212886515769395,0.658989196683711,0.721396264238819,-125.214445278923,73.5024846498012,1355.70878534889,85.4210344480927,-45.8746222537361,8.98768234714119,-9.3245585704144,80.0668423512058,111.137471848763,1
0.903577144489847,-0.424128341159865,0.06052680547126,-0.0756444715783199,-0.296996712076385,-0.951877548288357,0.421694507760311,0.855516278770193,-0.30044240526928,415.394205508014,471.542836756503,945.491783280991,33.201569831337,15.7267563041357,6.39070072620082,29.0236270409417,88.2293437280226,-104.679735196124,1
-0.762895407426339,0.291969583519581,-0.576839977487,-0.616053701153178,-0.598958350351314,0.511592349278117,-0.196133716181767,0.745655856842709,0.636811517274064,158.860327699227,292.392036525746,1176.03208478394,28.3177256892926,-8.79380169406802,-10.0082234584255,63.3189205074065,57.0109646099883,63.5014515606441,1
0.6553216851347,-0.616990020758263,-0.435748555105964,-0.118913550215746,-0.653958506078222,0.74712638817206,-0.745930999870166,-0.437791716016484,-0.501921664027403,217.024549264801,-762.509948067484,405.527856168071,-80.9355443618203,38.4438282269496,50.2009425894224,-57.7022696342135,72.3712955938563,137.443838611675,1
-0.686362004878784,0.65859752378346,0.30847447208006,0.400242072346103,-0.0120763046452591,0.916329878586425,0.607217820705942,0.752398474568104,-0.255309721093257,-235.735713734649,814.498527303256,962.297099196295,99.4449200103398,-16.3704208168088,83.9912080203304,-56.3600545465613,60.2012577090224,161.37594535182,1
-0.992653128086779,0.0829129829660946,-0.0881203980653513,0.0725579498645728,-0.174898555403245,-0.981909282586384,-0.0968251579445239,-0.981089156281692,0.167597602057714,-143.424820918717,-919.589861067362,685.740319900943,-108.256093303643,0.903314954437291,90.2998873423541,131.079735000552,16.6030499009831,144.985613563705,1
-0.516886296659463,0.12776572731685,-0.846465873646931,-0.56405780542263,-0.794632626279247,0.224494501924554,-0.643946696914794,0.59349381477463,0.482801971160831,-98.2730064804966,855.640521240836,973.81717672574,84.5494120037497,-11.7080677556959,78.7575651688334,108.847094146219,47.4697135217182,-69.4930668827637,1
-0.624090564708746,-0.768866126860616,-0.139125288886941,0.723285982749267,-0.501121572954553,-0.475115308402057,0.295581383378496,-0.397142352420276,0.868855337621945,-222.843253985208,-591.225919993678,1340.60768801046,-125.920881296162,-43.5385832056066,88.0344112025583,136.812106936342,43.6450732362117,-149.34830573719,1
-0.220368184777914,-0.963513877856583,-0.151917314073998,0.939235770416979,-0.251630142928474,0.233491838698956,-0.263199602406445,-0.091232002869423,0.960417977208633,144.85933328916,450.227782179529,1421.61451939963,53.8441082075519,-41.479551969809,62.8494397481125,164.263607520118,35.8099848989692,36.1712346217048,1
0.237588766636561,0.863033110179716,-0.44578630385157,-0.891517915918742,0.0115236497484846,-0.452838835671563,-0.385677823531533,0.505015897007214,0.772147369487185,-165.58111671729,433.158292346109,1454.56157623892,90.5781714679875,-48.6192460950265,67.5146252252808,58.6977347915857,26.4485849283575,-71.2634248707654,1
-0.863259468199102,-0.356421693544288,-0.357416657328146,0.03759296973904,-0.751523622575132,0.658634202982012,-0.503358579136984,0.555135858220825,0.662158832703019,64.7009914658477,-114.944803279176,1225.99212777164,-111.174004210007,-26.280279738855,-12.1624218990608,-77.4893288611436,43.3288430019796,7.419008879175,1
0.528165154346517,0.823333731016519,-0.207757399638469,-0.826092919491293,0.554830486274646,0.0986591093948889,0.196499511705429,0.119518613072021,0.973192294990496,-163.898615093637,299.506265980417,1312.93388313987,96.6907808674878,-22.1834894480588,13.0385506064403,-39.9904003221528,18.9865236585326,-0.963703560863775,1
0.314256423122611,0.363447772932087,0.877011184009012,-0.845483464908387,0.527282465397672,0.0844447289690846,-0.431741370605935,-0.768035753096729,0.472990983923002,-190.576183936707,206.570548570616,1349.2028115118,95.8801617396351,-32.1907527342016,21.5437009408589,140.661097309215,53.2853333309046,-177.860989982181,1
-0.136640543573745,-0.0483915692740285,0.989438031346617,-0.0939853001478115,-0.993667423712955,-0.0615777103161962,0.986152181566312,-0.101406642163403,0.131227160744818,-55.8789492782162,238.808672577804,1411.26640792736,83.2164207847086,-45.1744203853116,37.9105550664236,-88.1363700444578,82.6356875157854,176.237533892927,1
-0.376651887120221,0.558877267957604,0.738775713792096,-0.552291619454651,0.504790618872745,-0.663445851730365,-0.743711854826138,-0.657907767440327,0.118532892197692,-93.5012797836326,-399.881418033544,1358.43820218094,-120.494748800034,-35.0355742050367,35.7554727872775,-18.0363406623724,82.5079826091618,-137.850603927851,1
-0.707066757670074,0.681926426594184,0.187170908290833,-0.701678579192942,-0.70942932058324,-0.0660091705642158,0.0877711324964118,-0.178006707203095,0.980107055627603,-64.342551675703,116.595559614147,1585.75124661751,43.3045321685076,-81.5498400989816,80.6609223008515,-102.770681863496,11.2185295144583,-164.946023454061,1
-0.548793584893575,-0.0216075489725472,-0.835678595518072,-0.344904973379078,-0.904761515224188,0.249894297469168,-0.761489435591878,0.425370091093192,0.489074764310461,-397.761976023936,739.427680630113,913.819132940395,106.299408548585,4.18395695714974,53.8468914473664,97.9666130909915,38.1308787975545,-57.7602995958453,1
-0.866857122555119,-0.363739911361616,-0.340957484091641,0.340648126061684,-0.931484383264861,0.127654604085967,-0.364029646163773,-0.00548822524364945,0.931371191361185,15.352907208684,204.990250739635,1464.55367311501,37.9866482453654,-49.2264764624193,34.7902420527623,102.554275632709,13.0092783613441,62.4689002318514,1
-0.150902226079976,-0.00421288296061628,-0.988539715834052,-0.154240736605697,-0.987643408003352,0.0277541672340487,-0.976441658951235,0.156661259552844,0.148387790669841,-786.854295950821,381.275292411074,953.134480652816,143.227285120363,-9.80506021223786,75.0317907862863,63.1578319013778,30.9630202734945,-53.3977457032777,1
0.986370155898532,0.108473485544575,0.123723152588822,-0.151627631146503,0.307222492996966,0.939480388975539,0.0638981770131681,-0.945435266282436,0.319482675968281,271.847454891384,-714.862308640988,1196.47522650262,-79.2128088765716,-35.4367581637741,91.7782485998245,-24.0839280402021,16.2484191604287,118.507238625504,1
0.0580964555791013,-0.403467768272562,-0.913147612280897,0.210791778072684,-0.889112202512547,0.406258929305246,-0.975803068321729,-0.216086212675512,0.0333934206910841,-169.245739445539,493.613766559825,1069.30031545416,87.0836829142604,4.14379230980376,7.69376500155957,105.469226018097,91.2474898913286,12.5749475020099,1
-0.125324958811933,-0.983148614952847,0.133088149792107,0.761658706929833,-0.00938377180763078,0.647910455992675,-0.635743398594717,0.182567099289443,0.749999723600134,67.6709634974599,-394.296511056219,1296.95542289766,-95.1803302391057,-20.4143094906109,21.6404943484926,-102.198781713695,41.6545638671386,103.419863204116,1
0.0259915311394212,0.853771491612658,0.519998731170112,-0.981200464318484,-0.077719809899393,0.17665016266733,0.191233075408571,-0.514814404672888,0.835700927133074,152.737894879433,-762.006634548094,1058.44998778406,-89.8254694012692,-4.08285146433295,51.2134053954137,144.083487451201,18.8640936116487,32.7585614485145,1
-0.143480603387511,-0.610096531431162,-0.77922752696964,0.146157177641443,-0.791803452606359,0.593030666883709,-0.978800999118535,-0.0288012981706317,0.202778424267087,-236.703593295836,-837.726647799135,607.411548791133,-111.638960457863,16.3937595166561,70.1926752063737,-101.27888042799,66.4782559189597,128.637750067093,1
0.477393433063889,0.426044246430818,0.768493207615182,-0.851275919062506,0.441005335639965,0.284330096123093,-0.217772403421001,-0.789937082317496,0.573214258622343,174.02010814094,-347.208620381597,1418.11041793221,-81.5256205337968,-40.7070501552871,43.3223265240682,-24.6732737092338,52.6412583598031,161.028339518787,1
0.736491449016167,-0.215767508615629,-0.641112102328346,-0.238240641419142,0.804300577608996,-0.544373013322695,0.633104843057027,0.553665027867608,0.540955908197792,459.031028445097,-176.609628574977,1427.9341544995,-43.3913200406649,-49.3911531549118,75.147663753801,101.035198963514,58.543676573482,-70.8069338699725,1
-0.237251547859199,-0.971364242209912,-0.0127754449776851,0.961864984010025,-0.233048106798801,-0.14319333941524,0.13611559636503,-0.0462610945985755,0.989612275364819,-103.489098518626,266.495196623603,1462.98212117324,83.7759892348821,-45.0871093508577,41.2200469534241,-75.772242245668,8.32392108778914,-111.949290051163,1
0.271485099040539,-0.945392498692238,-0.180357601490474,-0.249142471650255,-0.250040953657194,0.935632166139131,-0.929636418079106,-0.209075452673547,-0.303419816871609,-215.746142591828,-841.220836565833,492.684736690665,-110.645693167927,21.6191519798213,71.4610593404661,-70.9552124968984,57.3861259490382,161.226150483248,1
0.973269166788178,-0.164127325064212,0.160652887140915,-0.200596220983441,-0.266853632935977,0.942629457801969,-0.111840444860559,-0.949658549035461,-0.292643734149998,225.706774054055,-754.368217180516,877.438439138021,-82.5885713724625,11.6574556229971,35.3341233422185,-15.4149394493982,61.414098939235,111.400357689153,1
0.666853529249339,0.656502188883612,0.352578000616497,-0.446237471715414,-0.0271243549195566,0.894503431076278,0.596806911291027,-0.75383628551644,0.27486790513634,554.099998820647,-314.161030820185,1257.54131261874,-41.3269645930705,-23.9217441230545,50.5553890404216,-13.3922338184563,47.9509148860135,117.711825967341,1
-0.352199289629555,0.684791574763172,0.6379781810672,-0.604701169318851,0.353778552404114,-0.713566557290393,-0.714347363828587,-0.637103786672333,0.289493711156086,316.580743421435,-458.377571927259,1141.53407570844,-64.4325036189258,-4.50500809997747,21.202544388434,-79.4024192939647,69.2778960804332,-114.638230890968,1
0.503157253592384,0.101317747725413,0.858235103076785,-0.848968729369972,-0.127649151152606,0.512794101723055,0.161508125830577,-0.98663083684115,0.0217880032317271,203.330554972268,-492.277893516204,1076.06257984524,-83.017837577838,3.7832342222065,2.36519104234688,2.33336038181609,82.6081623563174,148.891846011611,1
-0.0742595759551753,0.337034828120125,-0.938559023190867,-0.495941153490198,-0.829001825400924,-0.258453759416937,-0.865175061853825,0.44627737800159,0.228710765444604,-77.4126412431403,677.297075248224,1205.64950798881,80.1464960384855,-21.5686806639061,57.3548573410053,83.6818769216056,69.1409906939855,-52.0539545974297,1
0.694509083838374,-0.292343509633689,0.657413420034182,0.204354527317635,0.956249559613092,0.209346619042565,-0.689852418732273,-0.0110477198925578,0.723865725293309,-196.865866188059,-75.0469856459403,1227.65506841396,152.074477521771,-25.923554009491,-12.3999896618097,19.8294700006755,78.864499336484,-179.91236137225,1
-0.319260421892359,0.700959924578531,0.637752277258164,0.847789194898677,-0.0894613780212936,0.522733338190309,0.423469318872296,0.707567555769336,-0.56570477282452,339.481182889258,790.291899773672,544.740358715959,57.3076439512622,27.6235546295576,51.0019095163536,2.0597915254041,45.8573725177064,138.211196224837,1
0.177788150258258,0.495397339208117,0.85027810152518,-0.934780481601874,-0.185005204281287,0.303246641539537,0.307533453211055,-0.848737032710578,0.430196030271929,252.505120210298,-276.454313473171,1460.41413307157,-69.4001662760438,-50.360519530601,55.8591334595477,-0.718338262958796,59.0217945090584,160.447772252791,1
-0.138947058928284,0.98039511607957,-0.139710884266424,0.618296370610543,0.196087412786458,0.761090878040555,0.773565325557583,0.0193686064041603,-0.633420511335835,529.601004122087,669.313806682817,591.156534028374,44.2425644066714,22.46109784114,54.1042669482091,-35.1076114858459,66.1095616509121,125.891641545857,1
-0.913351585084178,-0.365888144121494,0.178646992741406,0.394680256166958,-0.687722282557323,0.609315646825297,-0.100081853580975,0.627027852703111,0.772541063321764,-147.271902721116,301.293208124878,1440.88681228527,90.4123981503254,-43.2336113707937,39.5904327538998,8.05184186898819,43.0219714677056,107.143906064174,1
0.970207764545147,0.0252672150740981,-0.240953235003615,-0.189369426147494,0.699427656580168,-0.689159033642702,0.151116226980681,0.714256621287597,0.683374981170623,-443.22109282293,555.075564463756,1148.2759960243,119.50263817545,-11.061851490052,48.5510616564821,-87.8322527169178,28.9216361646162,-14.3162128855445,1
-0.852601489230307,-0.437127019346598,-0.286340129076281,-0.212886801702387,-0.209867455136887,0.954271900946106,-0.47723150589959,0.874571678155385,0.0858747317042904,87.1571904296655,803.773730928077,1069.37691197867,70.8466797396264,-16.0936073566588,69.6247334518286,65.9702300142769,53.8780414622551,25.8034002543813,1
-0.887910490365032,-0.387640781063904,-0.247688485715213,0.132544982431988,-0.731183253089809,0.669180751391661,-0.440507421880532,0.561342743123282,0.700605121313709,-347.322142819848,98.5514612013433,1219.39247836047,143.186147068187,-12.528451249501,-1.35464858502608,-12.4924279203581,59.0151508362809,65.5173803364612,1
0.293640061707617,-0.302096098600347,-0.906925278824444,0.73308981715362,-0.537711734410756,0.416467778660786,-0.613477655783827,-0.787149311050595,0.0635698668124664,-514.600391889536,-715.385849211936,933.891031066804,-135.328375673043,-8.4826991321601,74.396314194814,20.3785880337659,21.6512504881158,6.08992477212459,1
-0.198380620871419,-0.693812970874767,-0.69229234482883,0.868653698016849,-0.451611542652486,0.203685462084788,-0.453966829387702,-0.560955057013457,0.692274181106523,-758.415287188518,407.181109690756,862.547035188286,139.668012749065,-2.43687318559104,77.178146073277,132.982761532702,80.4566381942017,-61.5686201287024,1
-0.827991338637256,-0.254543928076643,-0.499637600487591,-0.186268822582173,-0.715579265753628,0.673238620518275,-0.528899110299437,0.650502654185832,0.545079836374133,-311.672689359001,261.544912035349,1330.14078259411,118.617391641216,-27.3364070605852,23.217406738379,10.0541466201219,61.0229097581378,54.2763990020274,1
-0.264244735862678,-0.958609842019871,-0.106027781036389,0.689534679125291,-0.110911423763962,-0.715709845092432,0.674326809382843,-0.262232390946062,0.690302489700179,601.043348945257,213.891145117685,1304.95712202395,8.81865965433951,-31.0850144427801,64.6120768931723,-68.7873039601403,22.8835583458112,-36.2024754424151,1
0.452820731197802,-0.891600164564598,0.00159120893339268,0.86248682388889,0.437581078062544,-0.25424255886786,0.225986424405412,0.11649869814725,0.967139177840735,57.6425753704215,146.893418188616,1550.94588016021,0.764511245034157,-69.6266612294226,58.4568114935756,15.4499361106242,25.2111746957927,-78.6476297907609,1
0.912621316898767,-0.241337808464637,0.329967262235887,0.378704961623529,0.195106962001442,-0.904718644342145,0.153963904807854,0.950625760004458,0.269454598090781,-273.571606208449,581.990948901226,1324.73071692926,104.628771990905,-45.76473777563,89.0419739338709,-40.4314576502703,36.8627835065358,-82.5430805097073,1
-0.7047161349217,-0.70525475301973,0.0774009206928474,0.325950881447283,-0.418725070890578,-0.847599750997733,0.630183459053599,-0.572088322159053,0.52496072194449,-172.801722093532,-684.949796985821,1007.47285951839,-119.476035045022,6.93873776607556,29.8093384299795,101.141266186106,57.7856899979373,-138.824028289034,1
0.985371606603489,0.0544362185079816,-0.161491470406984,-0.127836369124426,0.862753258063853,-0.48919799511986,0.112697203287137,0.502686297619856,0.857091492523697,303.361243080968,791.688322020369,1004.72812297994,58.9182380530511,-11.4270585519981,76.7228432928555,164.157569621214,36.6613835436844,137.046672443811,1
-0.0719443196814221,-0.646242800325487,0.759733017508815,0.788483587503999,-0.503335044676375,-0.353479087128863,0.61083356743257,0.573606202745493,0.545763938960331,438.166898280659,-39.8967391378521,1287.92476156633,-30.0729480891409,-20.8035576273281,21.0984015407979,73.4570105099466,56.8387089589495,-155.386274868622,1
0.712039945556022,-0.171872504295078,0.680778200444106,-0.229344155584977,-0.973327783988549,-0.00585518701270379,0.663626682880964,-0.151963374479768,-0.7324662166852,400.744623965826,-731.713386112745,334.950117465897,-73.2690558561616,30.6672735430087,72.0527122038885,42.7415356559551,60.686192095152,103.977289186588,1
0.603418452274581,0.603128541329173,-0.52165326998754,-0.102068141622098,0.707208568911928,0.699598552402272,0.790865516962499,-0.368906495865397,0.488302909460872,708.776250586307,-416.912251826341,963.055399127332,-41.2209145471949,2.21963759193507,50.0411957457776,62.5199368407902,15.941714376606,-0.218178901866257,1
-0.250989631202047,-0.115462984169937,-0.961078823154289,-0.919888706781505,0.337538446473375,0.199681156567642,0.301345270686154,0.934203455591401,-0.190931745386081,175.514349207992,654.994411255596,1167.07219679703,62.2913943201816,-15.9354622508125,44.9458922146878,10.1255913519963,72.4173363770799,6.75431885033854,1
-0.536494472277655,0.471883275432187,0.699642662780731,0.828229013240751,0.135370426116383,0.543793664324365,0.161896210090825,0.871206647185649,-0.463452904897324,-109.276860992105,761.779513510867,756.323854254923,88.2846995845251,25.0345056367902,24.9150799671428,-8.40946684517677,68.1556339472202,149.401927852146,1
0.728731053675751,-0.445832554030762,0.519792636707213,0.683116455014323,0.420075128546979,-0.597401703433213,0.0479891685414014,0.790424076140553,0.610677344888492,-186.646280984175,624.701040611836,1330.08085457066,94.8440778625487,-41.8091955802338,83.5152269587521,-32.6664032837745,12.2546111596017,-104.05924970055,1
-0.876685796712419,0.0353715179348131,-0.479761263089985,-0.440556618284068,-0.459586399990969,0.771161595924905,-0.193214595537749,0.887428417768063,0.418496025559211,-334.217025576688,241.119932044977,1279.21739271467,127.587161532374,-21.0244866298425,16.4740750739943,-24.5031600194248,69.3881145780704,56.0368548656119,1
-0.81055523291194,-0.581551467277051,0.0692683571840659,0.139277820538915,-0.306287654917279,-0.941695046791265,0.568860178870872,-0.753648302163006,0.329260282363083,213.04772467097,29.544744201293,1390.00809852355,-24.0962623913424,-44.5600747261865,23.8125167353638,-27.1149943799212,89.143499024786,-104.052589697387,1
-0.935789993504689,-0.298516991875835,-0.187575834312145,0.346589870373346,-0.681456791775995,-0.644586768943448,0.0645952770029018,-0.668209732422217,0.741163412268272,-123.539562224353,-252.759659527914,1410.38240361906,-154.609289434041,-40.6845622939492,27.2145643277041,57.9990891781065,48.1157743083684,-56.6621823747535,1
-0.525573409886441,0.111843529870585,-0.843364461929969,0.619587539495248,-0.629005839839972,-0.469534806323702,-0.582995601803791,-0.769313121084841,0.2612918866022,-226.109604671305,-364.622586253978,1456.28499731308,-142.911980580731,-53.4932093490663,68.3234710821034,17.503360856792,60.6351980093388,-33.6807794721623,1
-0.449663804501389,0.199214355512245,-0.8706986295379,-0.892641787584139,-0.0658353601086963,0.445933116529768,0.0315135205892685,0.977741962849708,0.207430836914068,-319.600163013283,471.164607612084,1327.98811642355,112.279680666435,-33.388880005652,55.8484123150544,-28.1962097889662,57.8069037029189,37.7526575981464,1
-0.870151221442152,0.249027873718931,-0.42523166619357,-0.456981416239812,-0.084870779725199,0.885417944227636,0.184404004929902,0.964770474703629,0.187651523057896,330.816711226061,824.671229552699,563.581368991948,57.7709060959859,24.1588371901322,60.8419255045838,106.653937856563,21.9763454734012,-39.3239555515382,1
0.143997775244795,0.572750297331465,-0.806983108640613,-0.181211133088948,-0.786430970183643,-0.590498818272005,-0.972844882789219,0.231264839616256,-0.00945557973358313,-149.181739059119,127.510427196934,1414.75045998674,59.0021680431761,-55.7435429863883,31.8489484435269,106.409722498508,83.4541144964956,-13.3285393254067,1
-0.560791811283961,-0.741370866283387,0.368621463052648,0.749114395358558,-0.643942664972736,-0.155452458630904,0.352619011205347,0.188963178566702,0.916489361685411,491.269222679535,236.873854621606,1337.99360016562,10.1379479290692,-27.489455313007,46.4047726267339,63.1536447368398,7.98522656531177,156.56538287822,1
-0.660922010999349,-0.215124646262374,0.718960000241366,-0.16340634932167,-0.893792245185762,-0.41765271152856,0.732448264642589,-0.393518498950536,0.555574235008947,30.8313081050643,122.627831119761,1559.71536896682,20.0496647826163,-80.2202009885814,78.4571277302059,-47.4428617375481,57.4325034396533,-151.409036547281,1
0.0313868906245824,0.936759070078662,0.348564639231063,-0.821614758399358,0.222772004559013,-0.524711180331736,-0.569178400747327,-0.269916799421821,0.7766471975824,-22.1562332228341,475.239664912711,1101.37958818692,72.2873681525632,5.93913792213544,2.17085051732337,139.33511684902,44.9131852563229,-131.987325285492,1
-0.856625738857693,-0.391361934253015,-0.3361966388057,0.242378991375505,-0.880499412611247,0.407398096376312,-0.455461049999124,0.267500693100015,0.849116370778886,-379.856778055692,382.102642767629,1431.16838060717,118.079616998273,-55.0837979220213,92.0339319779917,118.605371644919,18.3187481847323,-41.9215840844112,1
0.915955820914438,0.315330076305521,0.248177108352309,-0.389800679045858,0.552314971571141,0.736887781683044,0.0952909478825069,-0.771696258352679,0.628811991056253,38.2249461699459,-249.508050314191,1313.24372880871,-123.004481760401,-32.0005450415013,5.41840005014744,31.5824746935933,72.7839799230047,126.154848701036,1
0.459737426454538,0.314391416391629,-0.830541712387899,-0.778701979366387,-0.306891229765724,-0.547212025108871,-0.426924731126962,0.898318323531334,0.103727834066001,-430.801304468638,127.976721799385,1266.29607537461,149.524885589051,-21.252225130884,22.2531718585195,-34.1682265688913,83.217633763874,-32.8141666578777,1
-0.642356763830175,0.761346932989691,0.0879126588655751,-0.765259506351184,-0.630891090171289,-0.127884011047608,-0.0419007863979569,-0.149423157407654,0.9878851371134,-121.107209483072,345.957112140528,1224.72702951047,86.5750397859542,-9.6114656675736,1.76673262730994,115.090804500732,2.08185147421844,-71.7070965886104,1
0.999376091411495,0.0277500631508504,0.0218486134618757,-0.0279384396113997,0.242677093294817,0.969704734433146,0.0216072096107484,-0.969710143488817,0.243300978435629,807.852099687031,-81.7772395657318,992.675449638195,-11.883987580871,-11.5908142287581,73.6398182902694,-96.7274750407046,71.9940723028684,156.039277534203,1
-0.952219578640587,0.19155165996835,0.237877774533295,-0.20562874044816,0.173793035282263,-0.963074660651541,-0.225820050383589,-0.965973054722929,-0.126100604257098,84.5361253421668,-371.13238074511,1437.43756986412,-97.8655863101996,-52.3787507484199,59.9398504656616,-5.25011481097397,89.7151030061931,-103.178830070473,1
-0.895293662561844,-0.228307223006055,-0.382524600123785,0.430594783809349,-0.223418565594476,-0.874455417219133,0.114181390483645,-0.947607490721222,0.298333125207797,0.239549034914056,-397.32724786398,1340.12047772019,-115.007087866427,-31.0571712827814,26.3458227280465,31.2009190050381,76.6585681355501,-63.8182695518873,1
-0.930455756275119,-0.295220195293909,-0.217018713260222,0.20849149699192,-0.913644927570478,0.348975990587896,-0.301302806652318,0.279460162841435,0.91165708250859,115.16339764097,531.014418030568,1343.03509449335,60.3838387223674,-28.9794220848133,49.9417164106857,120.783959063264,27.7525583898403,9.71561143782838,1
0.833450484601457,0.00565591934563321,-0.55256520003883,-0.516322228493616,0.364280670174575,-0.77505544943607,0.196905170274889,0.931272035397562,0.306530177968661,235.926413007862,454.938917347746,1235.15687100314,43.1599652409939,-15.353812987327,21.0708719928552,36.1228661491437,67.4945439009149,-58.0506850384059,1
0.844690358671325,0.418509816457651,0.333688075148471,-0.480038862847784,0.868092880726907,0.126401901042136,-0.23677180601481,-0.266953711268157,0.9341706631642,-192.115236096129,16.3558102766251,1473.80032252886,119.690387636108,-52.5165064061297,35.341287741871,63.7913391194993,22.1253323000272,-152.803831402207,1
0.854628435768892,-0.333205690717558,0.398226323148849,-0.161812966531406,0.557838989216249,0.814022251521725,-0.493383016162416,-0.760124746198694,0.422828061484629,-488.602609707081,113.786226539988,1289.79406176851,144.530265813914,-22.7795115493272,34.5315625467494,97.833308797495,66.0481399130915,103.202971217161,1
-0.575671140454469,-0.141908013941907,0.805273154666734,-0.520753373831621,-0.69564760421548,-0.494863955438509,0.63041150187067,-0.704227609745831,0.326565172639152,517.100874297317,-344.470248604949,1089.50469239885,-46.5180129922619,2.0980000797938,16.8353098949404,-1.97599231981683,52.0154807177736,-147.74983966573,1
-0.276892759260778,-0.679619248527207,0.679299695937122,0.0270161283025794,0.701154929554531,0.71249694285163,-0.960520967329965,0.215637292212397,-0.175784042298537,-831.558124313929,391.808662068201,538.610137199924,144.67555969453,11.6375243637677,85.8585606501878,81.6373969793815,22.551888316895,48.4780201152362,1
0.151702406430696,-0.215781894543476,-0.964585171910892,0.616141987267583,0.783721486759077,-0.0784199127651611,0.772887722382165,-0.582424935231459,0.251844720833176,744.497816884453,-59.3329606409283,1205.1003980822,-13.6492177491652,-32.4198962392998,83.4176912364999,-46.5434714952278,31.9001189790155,31.0067630912232,1
0.881732190080898,0.149519869609558,0.447428378142339,-0.456923762650539,0.506591608927361,0.731153620581655,-0.117341467948962,-0.849122341218466,0.514997310229145,14.097725556258,-706.09355872511,1264.26388441138,-100.445415610053,-32.9807042954232,76.2612995484548,8.11509861105024,15.8473518410309,114.981983607403,1
-0.771206223884991,-0.224283225912578,0.595766728523254,0.411536947943619,0.538358362228608,0.735396229454423,-0.485673038904059,0.81232217031962,-0.322884485364222,-318.487146942526,752.191780145172,550.388252207792,101.858091514452,36.5186628525353,35.3396211568403,27.7783373362669,41.4294983798018,101.11077022378,1
-0.383166387944599,0.217109609406781,-0.897801167660593,-0.00161582464601193,-0.972139662304012,-0.234396813302047,-0.923677924527918,-0.0883622910447456,0.372842054040476,17.0508883001424,210.39088699394,1372.0349774317,34.046091534652,-39.6355131370114,21.3769725001358,145.953577668163,52.4569502340652,-3.73537507288024,1
0.92899470150012,-0.285443313832935,0.235565190919147,0.0522675935296289,0.7313144783959,0.680034728786078,-0.366383601231446,-0.619436234229647,0.694306710663285,-115.199668270686,353.833138282058,1330.78725403682,83.226499321602,-25.7620049930083,26.6122147896138,156.494895566672,46.8067076358643,108.63501682323,1
-0.244645018507584,0.799000281286604,-0.549315360629349,-0.345692467006558,0.457426486001815,0.819303196722038,0.905894879759425,0.390332627905943,0.164301267243127,264.575010162419,34.069457535433,1474.00562546564,-37.5929322629709,-57.9323762843688,51.6435886462305,60.1419696170644,83.6403674683478,61.6861062079733,1
0.0438913674968372,0.929176372528171,-0.367021547861495,-0.976854991870235,-0.0370688641878032,-0.210666143853322,-0.209351075271803,0.36777325629145,0.906043574691264,-294.505495021786,159.586961495445,1481.46549788357,127.512597306739,-49.0573093654272,51.6557772633846,-8.71377855072231,22.4643870005559,-28.9253635102522,1
-0.440991789886899,0.848116572664664,-0.293640120596441,-0.594334758132432,-0.52111210779215,-0.612542542512833,-0.672526903943636,-0.0956057021519419,0.733871319229756,-445.695760450579,-334.28823457489,1414.43708098355,-156.574948405329,-53.4040611406175,91.0133944962582,-68.4048122910081,11.1394489850634,-7.73655983865464,1
-0.921841172382318,-0.0563197778738016,0.383453954890335,0.183451343411617,-0.934937345958005,0.303706706764065,0.341400728618535,0.350314489784888,0.872195678013533,119.630734848923,260.002031806599,1524.80320517436,34.8734118186289,-59.3344421084839,61.953981960873,11.8345760337682,26.7167753768128,140.521782619745,1
0.639373078187442,-0.361693604467222,-0.678512935305308,0.336961818532388,0.925004469819055,-0.175566123344211,0.691128641962161,-0.116380699870201,0.713299889918161,81.3850016408716,412.527463921265,1339.68897526477,64.8632196268978,-26.9141785523061,31.2477462762329,-78.7913397197201,43.4909595529571,-8.43632697920862,1
0.904413501053033,0.414212621804988,0.102294296275177,-0.422669333792415,0.83712451108158,0.347236500411322,0.0581966784659703,-0.357282041087799,0.932181682791324,297.55170567505,-365.220906627427,1196.98986985804,-67.4833803480158,-5.34407418359705,8.23684499858224,-15.2417296573184,18.4183324255064,108.515156151888,1
-0.639344805681579,0.453174542707032,-0.621185200475877,0.379724485689179,0.888565427524529,0.25741172462854,0.668616133828725,-0.0713043817056385,-0.740181160752896,696.741360774091,400.725063363065,984.880271603882,21.1520796967732,-11.2583066547864,65.2032276975382,-17.9458088962926,87.2670546249589,44.2523261564804,1
-0.94183495446261,0.108102458351005,0.318214985585032,-0.112050713681414,0.791671204087489,-0.600584167442126,-0.316846265743971,-0.601307378232743,-0.733510654842154,-50.251707908085,-821.678689633585,699.612497764558,-102.55852006904,20.5594914338874,41.4087580032821,-10.5809365501117,76.4579983242711,-104.120282726323,1
0.65769013411095,0.670614597916066,0.343103116504346,0.642808580620664,-0.262169366311559,-0.719766873402939,-0.39273504576695,0.693933198823683,-0.603503023519155,8.31428098538687,736.218301598475,683.646035596412,75.9433865240499,33.7283959384044,17.6006328433824,33.4375941824105,85.7566716778851,-148.139332024719,1
-0.110873289931218,0.970872016162251,-0.212402075820539,-0.720801229855138,0.0685823901473561,0.689740561951374,0.684216852042647,0.229573482777785,0.692201788054704,287.083244105306,10.9382004955675,1292.959922472,-34.6854713840585,-26.1136164754405,3.86625326585309,41.1361812882919,61.5023544844553,93.0724841407807,1
-0.757745067033739,-0.640189135083612,-0.126413150846464,0.64872276238133,-0.759982180082141,-0.039822902027997,-0.0705775527655252,-0.112182695985128,0.991178012148745,-202.625783285262,-371.464108307414,1451.87138399858,-138.186281080977,-43.8738576145644,57.2616014324883,160.898892242949,6.41411423990318,-162.618499585626,1
0.0336295166727804,-0.647484321106691,0.761336397086966,-0.420048887514735,-0.700377825477699,-0.577087370921217,0.906878154828965,-0.300391337258811,-0.295528436523247,688.41788618742,-62.2026269676923,1199.85348509691,-16.6928889089185,-24.4786719976261,59.3699690704424,-1.6383587937038,72.3112924528286,-141.857233743284,1
-0.262206090662333,0.540927657563078,-0.799152823496794,-0.882385740305788,0.200884256206677,0.425489037359714,0.390696008841378,0.816726872884449,0.424633776075109,-104.166724903183,335.99231811537,1495.72435732761,87.3110273662019,-59.6430686800886,71.0364870467958,-25.6225445294586,54.4756305044418,33.4461954014424,1
0.88391351113787,0.369031861342644,0.287249699985753,-0.0517948904352737,0.687714692425636,-0.724131059371652,-0.464773271771,0.625191160474855,0.626994273268412,-455.659672889644,680.232163128717,1081.59519608328,113.269181118001,-15.4573212344438,71.299971520009,117.394681603094,11.6959901730061,138.942419444909,1
-0.425159866929767,-0.821741812239348,-0.379446282851545,-0.188549782223057,-0.329617170244705,0.925095400866046,-0.885261581215349,0.464857951526555,-0.0147992475023046,-165.585577924257,827.849094596615,980.107528894573,88.2710879162636,-13.1098705501075,76.5612853949569,76.9120351315821,67.3472703498876,7.07469563956026,1
-0.268491542495232,-0.926108162990697,0.265020682307114,0.201868580017513,0.214918921163149,0.955541173224776,-0.941892439724539,0.310054072329433,0.129248227151054,-485.354323024609,446.594769801528,1027.21387008135,121.941746142877,6.89727665788179,18.1010640547636,44.9895386758379,63.9655668714969,87.966313467242,1
-0.135608432764855,-0.487597979045842,0.862472355379273,0.829105306139557,0.420717014471848,0.368214047892155,-0.542397220028174,0.765013336200295,0.347217296719796,-613.380735690419,639.051583347421,850.009881485774,124.713910937542,3.52281393527443,63.8191010043723,14.0213312547115,2.41154539270169,143.087856854226,1
0.569686053774152,0.781593063588132,0.254106440465708,-0.786466979671286,0.428680968988851,0.444637286688267,0.23859482396305,-0.453149985962372,0.858910705603524,-111.059592541596,-578.666331279902,1385.12812285218,-116.956261966932,-46.8893724957831,85.6241819295186,126.265304332305,31.2341865732329,39.6427104143649,1
0.502645808721289,-0.667095889469198,-0.549845674010646,0.844750673106627,0.243865883444969,0.4763672230302,-0.183694015310303,-0.70392649129359,0.686107865859498,-133.846653812705,-116.760884912159,1262.48281017394,138.184338125884,-35.5696823387385,-7.65722859075301,70.6154924583012,43.3138976884251,103.535199569061,1
0.492365303510833,-0.759179735087807,0.425702405126743,0.860840146316837,0.352497046287768,-0.367015088038088,0.128571576905208,0.547167215931663,0.827089709415914,148.518437360789,21.820723360471,1534.99867717128,-84.41870436573,-69.340226520182,54.5943792338073,149.207813545965,20.7269908821456,-125.829565804533,1
0.0884987488267343,0.750166745357416,-0.655299798272488,0.181237330255732,-0.659026599567903,-0.729956828301333,-0.979449335891284,-0.0541645199538263,-0.194281247680506,-49.3279557652273,-736.602245865884,1060.82505749613,-100.50893617628,-11.4665180594292,57.5511532552233,-72.4851596181705,88.149152910826,-3.63286118511576,1
0.840175380945864,-0.228560050604751,-0.491798365715082,0.492944956249175,-0.0561825592137829,0.868244660305313,-0.226076534299717,-0.971907312097066,0.0654643210557147,-78.1873236922078,-242.242713444613,1526.40776588338,-154.001856551244,-77.0966350438874,85.6976052302227,51.6667844983644,80.8609878941509,53.720056956785,1
0.695845994973172,-0.155166644072976,-0.701228681563244,-0.714592072646266,-0.0519612435211616,-0.697608915426722,0.0718089199954223,0.986520826814551,-0.1470378769917,549.956083147523,593.413623460035,970.674779366901,34.0600987243336,-2.48601326493373,53.3277098305955,57.2162868002285,67.5609420320138,-86.0800892157802,1
-0.119777036944895,-0.510490726841604,0.851500252043082,0.989910830944233,0.00398486457343866,0.141635686299852,-0.0756968176345617,0.859874024879844,0.504863004325865,302.107875181362,249.566746359443,1265.43201489099,10.852969653713,-18.7141149502844,12.059268012337,80.3848425012062,60.5730185849165,178.162529713189,1
-0.410496528626054,-0.101194372473912,-0.906229716443668,-0.867162925531577,0.350663315160658,0.353643464500695,0.281994788195592,0.931018226663769,-0.231698081671763,104.16599245444,841.802344344524,813.446273893656,73.488642706825,11.5620063515942,47.2081135665735,-0.470267771605743,44.6281373675451,21.7308904775936,1
-0.428658762752408,-0.581647116577359,0.691330815813109,0.235926956023148,-0.810712474225719,-0.535801974199858,0.872118189546134,-0.0665726363610224,0.484745239843277,322.609683666098,151.839634635434,1223.72968994268,3.28143990884317,-15.2768355737861,-0.19161862840157,-6.87863481686449,76.350394898663,-144.316175089313,1
0.0312721194131001,-0.784944624917736,-0.61877620377659,0.72525674794664,-0.408170796095101,0.554435975359604,-0.687767914419739,-0.466110005286141,0.556522020109606,-80.6256985920513,-830.323749441543,879.800431954126,-102.966630929629,7.40022738085297,52.8129364880543,-107.714983851927,36.4271257654841,126.162077506517,1
-0.99327171065253,-0.115383385513911,0.00989864459133766,0.0479053307284849,-0.331558412816987,0.942217649048284,-0.105434283348405,0.936352333920106,0.334855071123582,-509.034821808224,553.261057505596,907.0900221784,123.800274838825,15.2749099950228,27.6344465399447,-48.3857364400052,35.4177583980684,123.299497100607,1
0.925160798115811,0.103481534194353,0.365197302441433,-0.308058496836586,0.766800778682098,0.563131004597785,-0.221759915576506,-0.633488861696329,0.741292386275611,59.7921933602277,96.2434665743768,1260.21925174715,-6.83066573047745,-33.5792049960748,-8.34741856393944,-59.401945778091,49.5862672015598,63.9928489552463,1
-0.677803501042834,-0.316179915598781,0.66378661853492,0.15815419882167,0.818980050104982,0.551596706775084,-0.718031798299457,0.478854819858786,-0.505102364010364,-488.187577006635,304.230059050677,829.460561282402,132.845976474552,31.1633260952092,-9.83464687320652,11.7482714712919,99.5096222326072,135.351442918525,1
0.787519190154013,-0.602108499924539,-0.131449151605437,-0.281111764339273,-0.540759287680187,0.792814965006134,-0.54844297888589,-0.587405096254908,-0.595118099039622,-500.535664122446,-687.567005506764,444.824791911943,-135.649860557404,32.8271893951869,54.4644531250912,3.31759520330894,39.3050489579388,76.4611018622315,1
-0.846457681520983,-0.458378588754404,-0.270921506650253,0.482420219560734,-0.44487928920654,-0.754554934908027,0.225344458891483,-0.769396833504405,0.59770259112731,450.771669270626,-543.047410383336,845.836406521195,-60.8924841436703,27.5734442698716,13.2346980551966,-41.4057126408668,15.5575292121252,-37.6245944878831,1
-0.491116332008105,0.728301856338574,0.477892408904653,-0.869053646997968,-0.372122292024139,-0.325991960665033,-0.0595861315612579,-0.575414116817174,0.815688719483772,96.0919248710552,-472.840725137614,1453.22546096522,-95.2990855792853,-49.9064185909867,73.0695742269245,-1.68037124139713,12.1848624166898,-144.557841440952,1
-0.588880490984347,0.758881858241425,0.27806131081126,-0.0989487397492665,-0.409147801238446,0.907087219424779,0.80214020859203,0.506652150862687,0.316029561570033,466.626111916144,409.208420952242,1227.61148863718,27.8484194054654,-17.2799407592568,38.5890145962077,5.46087713249662,50.3446149715438,104.953585251762,1
-0.809958316579129,-0.0241126025247107,-0.58599155949876,0.291579847721694,-0.883479222871749,-0.366668317633968,-0.508870040193856,-0.467849382978557,0.722612093062168,-111.546994291481,-590.499569444624,1143.24533354859,-112.534685624741,-2.07734803234777,21.0560290913013,-39.0745758251892,27.4653842111959,-14.784412556176,1
0.943605120047203,-0.192538188267525,0.269329581515591,-0.163237646237935,0.437177132268242,0.884437462951686,-0.288032720834635,-0.878524445351622,0.381093099712159,-95.6185136755858,-632.229340717885,1341.64485482655,-111.500273617014,-47.7657780242634,90.9865230161455,7.47338650735809,24.5274230621212,101.408098788178,1
-0.594155323153843,0.680450967195442,0.428912500646391,-0.456708466653892,0.153552459924791,-0.876264240134046,-0.662115419284737,-0.7165250332639,0.219533706413306,109.929438504279,-60.5603262104763,1319.13164289008,-77.7225475265573,-42.8706008799093,7.66952122440246,-53.8663665645939,98.2239511629479,-144.583830560043,1
-0.585172268007975,0.796848640444158,0.150351790733267,-0.256483960948774,-0.357768812340846,0.897896126894558,0.769278489579964,0.486861090187456,0.413735282917776,305.586206811295,431.155091860095,1426.17996421153,40.1273218997653,-56.8846258742555,90.8925219057295,-13.4556898446839,32.0643200039483,107.724879966996,1
-0.936541083508559,-0.321608761746617,-0.139494097611408,0.229235058988705,-0.26079103206962,-0.937784263742204,0.265220826163894,-0.910250428156928,0.317965519214068,-198.230076569629,-615.974628074826,877.608717313971,-124.075474833993,26.7832549188776,3.70955918708339,63.7215113285283,54.4673080792391,-110.217859447284,1
0.780909681824725,-0.333941148593006,0.527885762366056,0.62300322030376,0.477598292477785,-0.619489191603412,-0.0452444065443658,0.812639637415434,0.581007541584238,665.230825338959,-109.940131741637,1085.48185080691,-24.8918396955871,-2.83348186518181,39.2649599393273,132.292653632567,76.1158457682293,-163.100934989499,1
-0.563897979336343,0.475872694997492,-0.674954996319171,0.457183404660805,0.860509241160295,0.22473802611149,0.687751701854051,-0.181848904405712,-0.702800521174607,798.599404623059,-74.8161178027967,285.995947735695,-15.413019221235,41.9525417705474,58.3804706898185,0.75995303474114,34.3230418179718,17.3651058664196,1
0.688297566256641,-0.516391970020891,0.50949562665751,0.257888271461818,0.83063871916248,0.493490585189374,-0.678041370218382,-0.208275422280351,0.704898041383518,107.504003077946,-49.6479775119594,1255.75535858043,-82.5796165421876,-33.3200517704036,-8.75319528304099,-51.2785867311741,63.6711186248579,88.4336894293591,1
-0.708369657812417,0.569971319087603,0.416347358954344,-0.371643126471479,-0.802653641235965,0.46650671887675,0.600078173605092,0.175726570637981,0.780401408209001,22.6149920919566,159.822888697809,1574.95685927366,25.97223995652,-81.327734744158,82.7477704196154,-9.95962830878507,37.3033563652834,132.140985241878,1
-0.25336267325589,0.0657073858922231,-0.965137241660397,0.953442525900221,-0.151733668516937,-0.26062279954639,-0.163568657161556,-0.986234978733569,-0.0242045680970075,12.4116314435166,-926.755717011765,657.27872317287,-97.8022835376599,6.35945597544165,81.7379283753956,-26.1508623878475,3.66434505689071,11.0320403790935,1
0.691088649389828,-0.268955280611407,-0.670864767084829,-0.69086180456049,0.0269303115629547,-0.722485103873115,0.212382781043959,0.962776098244219,-0.16719969786358,281.965601858208,824.379848664107,381.310025047757,60.8202695685791,29.0217128118793,73.2052115749224,97.3336595996573,16.637418625421,-147.651005393306,1
0.366932955878401,-0.375621741102202,0.851039666232832,0.867067365082253,0.469501687324116,-0.166620376932497,-0.336978323189578,0.799047228398396,0.497964995244829,207.052414392602,792.423848816843,406.526549754925,62.8588898597042,38.8134837406307,56.9031099466711,129.670434733577,59.6710553355971,73.1072702156864,1
0.806008811108375,0.574585074182956,-0.142132997371582,-0.172866365727436,0.45816836962722,0.871893895306833,0.566098062190511,-0.678184147263339,0.468614176465935,-0.157232438060269,-893.554817803711,770.543935560717,-101.546790982187,6.37591654447406,70.1752988289744,115.383664213868,49.8328950670552,-15.1840647224308,1
0.729432892869287,-0.310782286506169,-0.609378392457708,-0.670848455407762,-0.150816828998891,-0.726096848889829,0.133753522111992,0.9384394783281,-0.318498572740789,-407.488523009151,374.849420211884,1091.72953534146,126.783897544056,-1.60726855906488,14.2458294145507,-42.7051771196198,99.430788772706,-40.988261714914,1
-0.371631194273894,0.492905660261081,0.78672375426521,-0.685751910796169,-0.71697384567186,0.12527099210075,0.625807136649912,-0.492942709353827,0.604460844896464,-112.774924419319,-117.022965627168,1285.82829970072,157.148270662104,-32.9491816468313,-1.40936541511728,144.208875846726,21.171910248889,-164.57083608984,1
-0.110780978672052,-0.769521593951984,0.628938861262413,0.243044869626815,0.592642485108576,0.767921920635436,-0.963668390117963,0.237931505450476,0.121374760974114,-740.338923589552,338.916602438618,1004.50408009127,144.011012886405,-4.02496432795828,53.5931463581053,36.5615184156272,38.8622131865595,102.137141286436,1
0.196415771754408,-0.666891474758602,0.718802201930696,0.906118021909882,0.403567127055316,0.126821545213901,-0.374661146873069,0.626409877679635,0.683549332652107,-141.006158123653,110.315240013981,1574.19751865963,66.7002271993318,-87.8740051576627,91.2831909575644,56.9077376512364,44.9487014317349,166.080185905199,1
-0.0647474185813107,-0.95120446991563,-0.301691611085859,0.858071373573298,0.101269071805912,-0.503446216541154,0.509432320962353,-0.291469778035552,0.809644415068008,222.40464709999,97.760575446142,1543.93405362817,-7.88152790903649,-65.8739026683874,68.5194751724801,-23.3637330148636,33.4966267068866,-57.2805296514519,1
0.58798232948656,0.73475366752546,0.338251131955897,-0.610280608154558,0.128514026453052,0.781691578767053,0.530880739452904,-0.66604894194249,0.523969891706792,-30.1142316436825,-226.459392765496,1199.95893756458,-152.48495225164,-21.042718829125,-13.6470648610063,78.8957225713482,58.4209327600114,154.371160639745,1
-0.84463057815857,-0.521292844941351,-0.121872705116743,0.045793761510979,-0.297168857526143,0.953726166949027,-0.533387399407031,0.799965274202299,0.274869864161652,124.651451957319,239.936715347815,1186.43037198809,17.3553681858634,-16.2130048562159,-9.97520164606387,97.4961067737084,68.5295584271054,109.787859795401,1
0.978675602501212,-0.165632687842987,-0.12149023741354,0.195953862027008,0.930216555452818,0.310321194761484,0.061612896584977,-0.327510263471852,0.942836612725135,212.662764175267,-77.2579741105431,1550.18056584534,-55.7015895000632,-65.5199716323234,66.5551235321972,-24.8799170342572,18.5226988819458,69.9266072392238,1
0.194041653886274,0.976871913819319,0.0898281723517788,-0.885554637516641,0.213824785160961,-0.412397799731812,-0.422067317533412,0.000474596513259318,0.906564368496964,108.210429837953,-47.1554046706333,1549.9362642059,-104.664380341615,-72.293048870526,58.9921124670706,-52.6150194696953,30.932975616449,-127.953642649249,1
-0.906691549308468,0.328683108546986,0.264344185804228,-0.395340489633124,-0.880680584713062,-0.260974337753926,0.147024935535615,-0.341129186475372,0.928447384866477,332.957549171996,-78.2949743654521,1524.39398410147,-35.3512690572618,-60.8051942444988,75.2883482175627,-68.7787507480327,11.9592794290321,-96.4931709077579,1
-0.748201294997134,-0.332487051585966,0.574149094480069,0.239888338856555,-0.942393739366414,-0.233125770526619,0.618585812192015,-0.0366933308744018,0.784859982687413,609.207095952899,78.18287926476,1357.38209068599,-5.98548078009998,-39.5957211702771,74.4397002506565,25.1621411646917,3.77733972602739,179.01868320148,1
-0.0749078492376857,0.984847137432752,-0.156412691342802,-0.861478119481009,0.0150876155813755,0.507570501025751,0.502239249539547,0.172767125769294,0.847294079098496,486.581240225943,-226.882754379742,1421.50442891735,-43.0318142245659,-48.9064248355557,81.0613004738231,117.093242190027,31.7914869422717,9.73623078902856,1
0.506807190339198,0.561757804444869,-0.653891918412951,0.849151898439532,-0.456083153102488,0.266325385257643,-0.148618724247746,-0.690229184113055,-0.708163927492497,194.040503690542,-745.73629272184,996.25523663905,-84.9705617024682,-6.12654737510735,51.390613934476,-12.0400839739624,91.1040131594183,34.275403075675,1
-0.723156083486448,-0.227041370564725,-0.652301690146999,0.264080114051476,-0.963558932675806,0.042613103890953,-0.638206057852086,-0.141443979415008,0.756760614995354,-724.793307634902,129.681742908465,1141.91529308478,157.223262164664,-11.4787556101789,52.0094361236276,102.856731571965,22.7802237015803,-72.0067616741544,1
-0.174840102585875,-0.973768189771686,0.145624349325705,0.457425990904044,0.0506379050740473,0.887804745096108,-0.871890131480575,0.221836234998897,0.436573342599271,-625.411567106352,265.406252688904,1250.99593343899,143.475132371638,-25.2419321218102,58.980525882282,37.128394021588,34.3587211420959,77.4371883527242,1
-0.591769755601681,-0.541909712137987,0.596776692109913,0.542876636202307,-0.815179165801455,-0.201910587906902,0.595897234614153,0.204491543917511,0.776588497368741,328.950783596234,-571.495446077555,1098.55825769976,-75.4826544437348,-0.421291929765399,31.675832872228,125.28295531125,50.3069998551749,156.450077962535,1
0.285201969040622,-0.242060400053749,-0.927397756942064,0.24293559798274,0.954244031762915,-0.174357744530103,0.927168880025705,-0.175570756593104,0.330957364839044,527.220390532423,665.59715067504,771.472176977504,45.1551584168917,13.1635878573731,55.0284964802376,-98.0598894306735,52.0907187991296,66.299285844066,1
-0.681406396809199,0.168483292392185,0.712249045329085,-0.705180302005906,0.109437599177718,-0.700531336593215,-0.195974651550559,-0.979610530808498,0.0442396188809326,-312.547342247962,-582.95735802286,1037.08878803049,-133.034485237846,5.08880117174713,19.5137691714657,34.8554403798418,66.7960508881205,-149.253421723809,1
-0.409037345599442,-0.107852658740308,-0.906121544776201,-0.67697648392691,-0.629969093329276,0.380580847731265,-0.611875224302244,0.769094757134995,0.184667172048912,113.622414564082,121.427078016728,1478.97145963416,-28.7868699074162,-61.5332199240838,49.0072359698912,155.820014602503,67.8581423191649,27.9690095582475,1
0.488111978335746,0.854358726460997,0.178375623685263,0.346190207881498,-0.00191287890324512,-0.938162395782983,-0.801186018707347,0.519680197250428,-0.296704324224684,-550.09302656987,718.210250015806,588.785928825182,116.821375120852,16.5270131378483,68.6500051008963,52.7761027921208,37.1168039164872,-156.953836434929,1
0.0399327725650802,-0.904136653782435,0.425373112646258,0.516458151951471,0.383113483722897,0.765829638935825,-0.855380822182808,0.18910571085191,0.482247528936185,-218.785560382022,272.394386395008,1300.28634758672,96.5070603983535,-25.1571299604351,12.9036909041101,65.320211738372,65.7442009991672,131.766798049583,1
0.701912269014313,0.600427964048128,-0.38315196279831,0.343292251831321,0.186146741273181,0.920597534510036,0.624074992640916,-0.777711804399544,-0.0754635863038989,598.996812373647,-610.765124874326,848.804467286035,-55.2205654491837,7.85246383428361,51.080479575829,6.80444938678243,35.5967347673938,61.5614629068686,1
0.861440093773057,-0.164160550084595,-0.480595753868248,0.381489974431612,0.833834853445029,0.398979744584201,0.33524075564948,-0.527039610443304,0.780924378397381,409.61765327692,-455.27029342999,1211.97126494921,-61.4380711088185,-11.5087103707752,32.7329115828611,8.10372130043729,17.5302800658821,35.0123849232073,1
-0.448869213424492,0.856808020673769,0.253764546280162,-0.791403628850638,-0.513043065085256,0.33236592726988,0.414965932917052,-0.0516413504570231,0.908370213867262,272.17143695922,-435.609192885726,1441.72762039951,-76.3631828398486,-54.5364125825159,89.1586074467976,135.233497225673,33.7352609568797,54.2605485621501,1
0.715591184454439,-0.657445697256285,-0.235996635336798,0.676024752103766,0.736873001951,-0.00295187038391451,0.175840243613725,-0.157427234476501,0.971749388767982,76.6798132062407,-699.156562471677,1186.41137068447,-96.0985686880704,-15.7362418210396,56.0131278297246,159.884272326536,33.850188340166,-110.319020861081,1
0.318547375508776,0.652088636087128,-0.687973822352639,-0.558710775902073,-0.457146213355156,-0.691996826947888,-0.76574789483705,0.604812161171608,0.218706221337104,-61.823573153625,235.796424593806,1161.09861923521,51.632478307829,-18.1404352583264,-16.7690278567646,82.742980548374,79.6312663154877,-9.59108785967604,1
0.905845794930007,0.150396406852387,0.396010500635418,0.416810927197812,-0.149656769373546,-0.896588814534942,-0.0755780839669998,0.977232711377676,-0.198252821007199,253.811142992197,708.181779035109,696.270617084491,56.9572645483153,34.1774428369436,18.4569429095718,43.4341802105783,60.1326252109097,-147.71295154344,1
-0.437418392156695,-0.830759780382927,0.344243137188183,0.849580004300652,-0.507249544109593,-0.144608838917661,0.294752381662228,0.229207520161797,0.927677177797171,136.26697658776,305.013517206626,1172.90884176685,41.4563169884617,-5.58926465952457,-11.5604685860674,-2.12463439592274,39.054549593797,-158.891544564345,1
-0.0893061087461945,-0.523254311770446,-0.847484126196031,-0.926545951786478,-0.268538162576336,0.263438521230695,-0.365427172181685,0.808759655555198,-0.460837065976181,-490.166468618752,609.420145911434,218.94122991819,118.813259230518,44.9873249050996,64.043463697629,-25.3135283290468,9.36847810391132,44.3614004848304,1
-0.0550730051038885,0.99416908009888,-0.092708167300267,-0.932487272287951,-0.0180151441165212,0.360753297425592,0.356979622849545,0.106316954235005,0.928042161818302,122.186234586322,-455.92915890662,1033.49902182267,-94.7222853195103,16.3295901785143,-8.64693936147398,126.651052008712,25.6284215900587,58.8524068483094,1
-0.919124056417128,-0.356893152276718,-0.166847975035092,-0.0135596910062718,0.451912837634762,-0.891959036032884,0.393734813923201,-0.817558600369958,-0.420203321340964,830.263271898584,133.036499709348,667.863954528841,2.78898249377266,17.821191708277,54.2966843559654,-58.6848723945173,78.030937920606,-15.7687441911681,1
0.18717191783312,0.805172434943688,-0.56272908506805,0.0315924341757,0.567622671394451,0.822682454548461,0.981819021651916,-0.171761034364259,0.080805666859412,269.67429657302,781.344240914881,660.673542548157,65.0339968354933,21.9398995714294,51.0692662629379,-90.1001808880156,74.275239071287,129.262485064211,1
-0.207521985929398,0.708172850417221,-0.674852457421522,0.868837001448,0.450434843138803,0.205501136253231,0.449507386224927,-0.543690781619912,-0.708761909043342,745.550034831959,-292.087486170517,488.608833866333,-30.4541998829719,38.2337212163245,37.7837120043596,-15.8559922211543,61.8255594282587,39.0114540244456,1
0.0303912466733238,-0.999512777252786,0.00711197821029058,0.448312150688991,0.0199901491581987,0.893653517578958,-0.893360278762299,-0.0239708582461171,0.448701248365426,-158.764019766537,704.756150889635,1174.68159057832,87.4416287334558,-23.1414609133596,70.4341696307887,112.706924868207,75.0821797849233,41.1223388961988,1
0.716332044427153,-0.193285918443044,0.670454290655556,0.475508339697139,-0.56797272394574,-0.671787766881868,0.510646865265308,0.800029711064086,-0.314947996357222,-94.781050607547,557.409343016744,897.42299623587,88.1955370153221,23.7499680924102,-5.92565445665009,-29.0657452505011,92.8740905367839,-125.928797375873,1
0.792226387315625,-0.576133278860943,-0.20111637484246,0.271874367342464,0.0381813851367398,0.961575015384226,-0.546316464718911,-0.816463487743316,0.186884171504844,-178.318060798521,-57.5667666342619,1190.97179682201,113.596919537154,-30.7508373386985,-14.8128430009641,106.000093676212,59.4079625442415,122.507720924463,1
-0.199763620587111,-0.600718706378602,-0.774100466152002,-0.241312962821915,-0.735529380601792,0.633059700380345,-0.949664440665248,0.313262774804735,0.00197080125844074,-342.481783607372,-664.694641251149,952.592819987105,-123.807631039185,4.41737376391783,41.710243427587,-79.1646929984125,78.776333988633,84.351527790078,1
0.311903227742243,-0.780860361886499,-0.541270239121326,-0.683851371341812,-0.579996492377889,0.44266394786934,-0.659593570646269,0.232080081144058,-0.714895207354388,-337.776668183813,715.550165769379,1015.4026219319,102.625963475948,-14.5649895805631,67.6882138655483,36.7403288723685,97.6150139261812,-3.90616614030066,1
0.143073548694317,0.809404384876503,0.569556407572336,-0.354867227859868,0.579166361061643,-0.733917963266786,-0.923904329600781,-0.0971126560099349,0.37009447684021,-894.6061519301,171.812147542442,767.535733470128,158.775344920421,4.26629124187764,74.1080663267676,114.761703602106,27.9067982033555,125.40488294279,1
-0.103899613720589,-0.461896784955943,-0.88082701497858,0.124158614067458,-0.884716020443354,0.449290776361727,-0.986807736502689,-0.0626811233007099,0.149270117438826,-449.578110862666,499.449583273704,931.078514803159,115.427952840548,17.0641474997887,14.7816839552581,75.7553667329785,71.3070238693898,-4.11996645442933,1
